;FLAVOR:RepRap
;TIME:4424
;Filament used: 3.81177m
;Layer height: 0.2
;Generated with Cura_SteamEngine master
M190 S90
M104 S250
M109 S250
G21 ;metric values
G90 ;absolute positioning
M82 ;set extruder to absolute mode
M107 ;start with the fan off
G28 X0 Y0 ;move X/Y to min endstops
G28 Z0 ;move Z to min endstops
G1 Z15.0 F9000 ;move the platform down 15mm
G92 E0 ;zero the extruded length
G1 F200 E3 ;extrude 3mm of feed stock
G92 E0 ;zero the extruded length again
G1 F9000
;Put printing message on LCD screen
M117 Printing...
;LAYER_COUNT:50
;LAYER:0
M107
G1 F1500 E-2
G0 F900 X31.817 Y132.478 Z0.2
;TYPE:SKIRT
G1 F1500 E0
G1 F600 X32.591 Y132.319 E0.02628
G1 X33.376 Y132.238 E0.05253
G1 X33.778 Y132.228 E0.0659
G1 X55.988 Y132.228 E0.80461
G1 X56.777 Y132.268 E0.83089
G1 X57.557 Y132.387 E0.85713
G1 X58.322 Y132.585 E0.88341
G1 X58.607 Y132.69 E0.89351
G1 X59.327 Y132.468 E0.91857
G1 X60.101 Y132.312 E0.94484
G1 X61.245 Y132.228 E0.98299
G1 X138.698 Y132.218 E3.55908
G1 X139.361 Y132.126 E3.58135
G1 X139.473 Y132.091 E3.58525
G1 X139.918 Y131.869 E3.60179
G1 X140.238 Y131.628 E3.61511
G1 X140.503 Y131.337 E3.62821
G1 X140.716 Y130.993 E3.64166
G1 X140.861 Y130.619 E3.655
G1 X140.934 Y130.227 E3.66827
G1 X140.975 Y64.231 E5.8633
G1 X140.942 Y64.181 E5.86529
G1 X140.619 Y63.576 E5.88811
G1 X139.802 Y61.869 E5.95105
G1 X139.498 Y61.141 E5.97729
G1 X139.346 Y60.672 E5.99369
G1 X138.951 Y59.308 E6.04092
G1 X138.72 Y58.23 E6.07758
G1 X138.521 Y56.822 E6.12488
G1 X138.45 Y56.035 E6.15116
G1 X138.446 Y55.544 E6.16749
G1 X138.491 Y53.655 E6.23034
G1 X138.55 Y52.868 E6.25659
G1 X138.665 Y52.193 E6.27936
G1 X139.065 Y50.342 E6.34235
G1 X139.271 Y49.58 E6.3686
G1 X139.506 Y48.949 E6.391
G1 X140.243 Y47.208 E6.45388
G1 X140.587 Y46.498 E6.48012
G1 X140.944 Y45.91 E6.503
G1 X141.997 Y44.337 E6.56596
G1 X142.469 Y43.704 E6.59222
G1 X142.925 Y43.2 E6.61483
G1 X144.253 Y41.853 E6.67774
G1 X144.835 Y41.319 E6.70401
G1 X145.374 Y40.911 E6.72649
G1 X146.933 Y39.834 E6.78952
G1 X147.604 Y39.419 E6.81576
G1 X148.046 Y39.194 E6.83225
G1 X149.33 Y38.59 E6.87945
G1 X150.061 Y38.29 E6.90573
G1 X150.532 Y38.141 E6.92216
G1 X152.354 Y37.627 E6.98513
G1 X153.124 Y37.451 E7.0114
G1 X153.627 Y37.38 E7.02829
G1 X155.04 Y37.226 E7.07557
G1 X155.828 Y37.18 E7.10182
G1 X156.31 Y37.192 E7.11786
G1 X158.199 Y37.295 E7.18078
G1 X158.984 Y37.377 E7.20703
G1 X159.653 Y37.513 E7.22974
G1 X161.49 Y37.969 E7.29269
G1 X162.246 Y38.198 E7.31896
G1 X162.717 Y38.384 E7.33581
G1 X164.021 Y38.95 E7.38309
G1 X164.728 Y39.301 E7.40934
G1 X165.149 Y39.554 E7.42568
G1 X166.738 Y40.581 E7.4886
G1 X167.379 Y41.043 E7.51488
G1 X167.888 Y41.488 E7.53737
G1 X169.257 Y42.794 E7.6003
G1 X169.8 Y43.368 E7.62658
G1 X170.22 Y43.904 E7.64923
G1 X171.32 Y45.444 E7.71217
G1 X171.746 Y46.109 E7.73844
G1 X172.057 Y46.714 E7.76107
G1 X172.849 Y48.433 E7.82402
G1 X173.143 Y49.166 E7.85029
G1 X173.285 Y49.626 E7.8663
G1 X173.662 Y50.995 E7.91353
G1 X173.83 Y51.752 E7.93932
G1 X173.91 Y52.22 E7.95511
G1 X174.004 Y53.004 E7.98137
G1 X174.018 Y53.793 E8.00762
G1 X173.952 Y54.58 E8.03388
G1 X173.828 Y55.242 E8.05629
G1 X173.893 Y55.558 E8.06702
G1 X173.974 Y56.343 E8.09326
G1 X173.976 Y57.133 E8.11954
G1 X173.897 Y57.919 E8.14581
G1 X173.715 Y58.786 E8.17528
G1 X173.228 Y60.587 E8.23733
G1 X172.983 Y61.338 E8.2636
G1 X172.718 Y61.95 E8.28579
G1 X171.905 Y63.629 E8.34783
G1 X171.577 Y64.229 E8.37058
G1 X171.566 Y150.355 E11.23514
G1 X171.526 Y151.144 E11.26141
G1 X171.461 Y151.627 E11.27762
G1 X171.301 Y152.594 E11.31022
G1 X171.133 Y153.366 E11.3365
G1 X170.813 Y154.303 E11.36943
G1 X170.314 Y155.509 E11.41284
G1 X169.976 Y156.223 E11.43912
G1 X169.567 Y156.898 E11.46537
G1 X169.295 Y157.276 E11.48086
G1 X168.5 Y158.312 E11.52429
G1 X167.988 Y158.913 E11.55055
G1 X167.265 Y159.589 E11.58347
G1 X166.507 Y160.212 E11.6161
G1 X165.872 Y160.682 E11.64238
G1 X165.002 Y161.183 E11.67577
G1 X163.831 Y161.76 E11.71919
G1 X163.105 Y162.072 E11.74547
G1 X162.151 Y162.36 E11.77862
G1 X161.197 Y162.582 E11.8112
G1 X160.42 Y162.722 E11.83745
G1 X159.432 Y162.785 E11.87038
G1 X33.781 Y162.829 E16.04955
G1 X32.992 Y162.789 E16.07583
G1 X32.211 Y162.67 E16.1021
G1 X31.447 Y162.473 E16.12835
G1 X30.706 Y162.199 E16.15462
G1 X29.997 Y161.851 E16.18089
G1 X29.327 Y161.434 E16.20714
G1 X28.702 Y160.951 E16.23341
G1 X28.129 Y160.407 E16.25969
G1 X27.614 Y159.809 E16.28594
G1 X27.162 Y159.161 E16.31222
G1 X26.778 Y158.471 E16.33848
G1 X26.466 Y157.746 E16.36473
G1 X26.229 Y156.992 E16.39102
G1 X26.069 Y156.219 E16.41728
G1 X25.988 Y155.433 E16.44356
G1 X25.978 Y155.029 E16.457
G1 X25.978 Y140.028 E16.95593
G1 X26.018 Y139.239 E16.98221
G1 X26.137 Y138.459 E17.00845
G1 X26.335 Y137.694 E17.03473
G1 X26.609 Y136.954 E17.06098
G1 X26.957 Y136.245 E17.08725
G1 X27.375 Y135.574 E17.11354
G1 X27.858 Y134.95 E17.13979
G1 X28.401 Y134.377 E17.16604
G1 X29 Y133.862 E17.19232
G1 X29.648 Y133.411 E17.21858
G1 X30.339 Y133.027 E17.24487
G1 X31.064 Y132.715 E17.27112
G1 X31.817 Y132.478 E17.29738
G0 F900 X32.171 Y132.805
G1 F600 X32.929 Y132.677 E17.32295
G1 X33.778 Y132.628 E17.35123
G1 X55.988 Y132.628 E18.08994
G1 X56.756 Y132.668 E18.11552
G1 X57.516 Y132.787 E18.1411
G1 X58.259 Y132.985 E18.16668
G1 X58.617 Y133.122 E18.17943
G1 X58.936 Y132.998 E18.19081
G1 X59.678 Y132.796 E18.21639
G1 X60.437 Y132.672 E18.24197
G1 X61.245 Y132.628 E18.26888
G1 X138.725 Y132.618 E20.84587
G1 X139.448 Y132.517 E20.87016
G1 X139.623 Y132.463 E20.87625
G1 X140.13 Y132.211 E20.89508
G1 X140.509 Y131.924 E20.91089
G1 X140.828 Y131.575 E20.92662
G1 X141.074 Y131.176 E20.94221
G1 X141.247 Y130.73 E20.95812
G1 X141.334 Y130.264 E20.97388
G1 X141.376 Y64.111 E23.17414
G1 X141.276 Y63.96 E23.18017
G1 X140.98 Y63.404 E23.20112
G1 X140.163 Y61.697 E23.26406
G1 X139.868 Y60.987 E23.28963
G1 X139.73 Y60.56 E23.30456
G1 X139.335 Y59.196 E23.35179
G1 X139.116 Y58.174 E23.38655
G1 X138.917 Y56.766 E23.43385
G1 X138.849 Y55.999 E23.45946
G1 X138.846 Y55.554 E23.47426
G1 X138.891 Y53.665 E23.5371
G1 X138.949 Y52.898 E23.56269
G1 X139.056 Y52.278 E23.58361
G1 X139.456 Y50.427 E23.6466
G1 X139.657 Y49.685 E23.67217
G1 X139.874 Y49.105 E23.69276
G1 X140.611 Y47.364 E23.75564
G1 X140.948 Y46.672 E23.78125
G1 X141.277 Y46.132 E23.80228
G1 X142.33 Y44.559 E23.86524
G1 X142.79 Y43.943 E23.89081
G1 X143.209 Y43.481 E23.91155
G1 X144.537 Y42.134 E23.97446
G1 X145.105 Y41.615 E24.00005
G1 X145.601 Y41.241 E24.02072
G1 X147.16 Y40.164 E24.08374
G1 X147.815 Y39.76 E24.10933
G1 X148.216 Y39.556 E24.1243
G1 X149.5 Y38.952 E24.17149
G1 X150.212 Y38.661 E24.19708
G1 X150.641 Y38.526 E24.21203
G1 X152.463 Y38.012 E24.275
G1 X153.213 Y37.842 E24.30058
G1 X153.67 Y37.778 E24.31593
G1 X155.083 Y37.624 E24.3632
G1 X155.851 Y37.58 E24.38879
G1 X156.288 Y37.591 E24.40333
G1 X158.177 Y37.694 E24.46625
G1 X158.942 Y37.776 E24.49184
G1 X159.557 Y37.901 E24.51271
G1 X161.394 Y38.357 E24.57566
G1 X162.13 Y38.581 E24.60125
G1 X162.557 Y38.751 E24.61654
G1 X163.861 Y39.317 E24.66382
G1 X164.55 Y39.659 E24.6894
G1 X164.932 Y39.89 E24.70425
G1 X166.521 Y40.917 E24.76718
G1 X167.144 Y41.368 E24.79276
G1 X167.612 Y41.778 E24.81345
G1 X168.981 Y43.084 E24.87638
G1 X169.509 Y43.643 E24.90196
G1 X169.895 Y44.137 E24.92281
G1 X170.995 Y45.677 E24.98575
G1 X171.409 Y46.325 E25.01133
G1 X171.694 Y46.881 E25.03211
G1 X172.486 Y48.6 E25.09506
G1 X172.771 Y49.315 E25.12066
G1 X172.899 Y49.732 E25.13517
G1 X173.276 Y51.101 E25.1824
G1 X173.436 Y51.819 E25.20686
G1 X173.516 Y52.287 E25.22266
G1 X173.606 Y53.051 E25.24824
G1 X173.616 Y53.82 E25.27382
G1 X173.547 Y54.586 E25.2994
G1 X173.421 Y55.223 E25.321
G1 X173.536 Y55.896 E25.34371
G1 X173.584 Y56.664 E25.3693
G1 X173.553 Y57.432 E25.39487
G1 X173.443 Y58.193 E25.42044
G1 X173.328 Y58.682 E25.43715
G1 X172.841 Y60.483 E25.4992
G1 X172.602 Y61.214 E25.52478
G1 X172.358 Y61.776 E25.54516
G1 X171.545 Y63.455 E25.6072
G1 X171.177 Y64.126 E25.63266
G1 X171.166 Y150.355 E28.50065
G1 X171.126 Y151.123 E28.52622
G1 X171.067 Y151.562 E28.54096
G1 X170.907 Y152.529 E28.57356
G1 X170.742 Y153.28 E28.59913
G1 X170.444 Y154.15 E28.62972
G1 X169.945 Y155.356 E28.67313
G1 X169.614 Y156.051 E28.69873
G1 X169.213 Y156.707 E28.7243
G1 X168.978 Y157.032 E28.73764
G1 X168.183 Y158.068 E28.78108
G1 X167.683 Y158.653 E28.80667
G1 X167.011 Y159.28 E28.83724
G1 X166.253 Y159.903 E28.86987
G1 X165.634 Y160.36 E28.89547
G1 X164.825 Y160.824 E28.92648
G1 X163.654 Y161.401 E28.9699
G1 X162.947 Y161.705 E28.9955
G1 X162.06 Y161.97 E29.02629
G1 X161.106 Y162.192 E29.05887
G1 X160.349 Y162.328 E29.08445
G1 X159.432 Y162.385 E29.11501
G1 X33.781 Y162.429 E33.29418
G1 X33.012 Y162.389 E33.31979
G1 X32.253 Y162.27 E33.34534
G1 X31.509 Y162.073 E33.37094
G1 X30.79 Y161.799 E33.39653
G1 X30.104 Y161.452 E33.4221
G1 X29.457 Y161.036 E33.44768
G1 X28.857 Y160.555 E33.47326
G1 X28.31 Y160.015 E33.49883
G1 X27.822 Y159.42 E33.52442
G1 X27.398 Y158.778 E33.55001
G1 X27.043 Y158.096 E33.57558
G1 X26.761 Y157.38 E33.60118
G1 X26.555 Y156.639 E33.62676
G1 X26.427 Y155.881 E33.65233
G1 X26.378 Y155.029 E33.68071
G1 X26.378 Y140.028 E34.17965
G1 X26.418 Y139.26 E34.20522
G1 X26.537 Y138.5 E34.23081
G1 X26.735 Y137.757 E34.25639
G1 X27.009 Y137.038 E34.28198
G1 X27.356 Y136.352 E34.30755
G1 X27.772 Y135.705 E34.33313
G1 X28.253 Y135.105 E34.35871
G1 X28.794 Y134.558 E34.3843
G1 X29.389 Y134.07 E34.40989
G1 X30.031 Y133.647 E34.43546
G1 X30.714 Y133.292 E34.46106
G1 X31.429 Y133.011 E34.48661
G1 X32.171 Y132.805 E34.51223
G0 F900 X32.519 Y133.142
G1 F600 X33.261 Y133.047 E34.53711
G1 X33.778 Y133.028 E34.55431
G1 X55.988 Y133.028 E35.29302
G1 X56.735 Y133.068 E35.3179
G1 X57.473 Y133.187 E35.34277
G1 X58.195 Y133.385 E35.36767
G1 X58.606 Y133.546 E35.38235
G1 X59.296 Y133.305 E35.40666
G1 X60.025 Y133.135 E35.43155
G1 X60.767 Y133.044 E35.45642
G1 X61.245 Y133.028 E35.47233
G1 X138.751 Y133.018 E38.05019
G1 X139.536 Y132.909 E38.07655
G1 X139.775 Y132.835 E38.08487
G1 X140.339 Y132.553 E38.10584
G1 X140.781 Y132.22 E38.12425
G1 X141.147 Y131.818 E38.14233
G1 X141.434 Y131.354 E38.16047
G1 X141.633 Y130.841 E38.17878
G1 X141.734 Y130.3 E38.19708
G1 X141.776 Y63.99 E40.40256
G1 X141.611 Y63.74 E40.41252
G1 X141.341 Y63.231 E40.43169
G1 X140.524 Y61.524 E40.49463
G1 X140.238 Y60.833 E40.5195
G1 X140.114 Y60.449 E40.53292
G1 X139.719 Y59.085 E40.58016
G1 X139.512 Y58.118 E40.61305
G1 X139.313 Y56.71 E40.66034
G1 X139.248 Y55.964 E40.68525
G1 X139.246 Y55.563 E40.69859
G1 X139.291 Y53.674 E40.76143
G1 X139.349 Y52.928 E40.78632
G1 X139.447 Y52.362 E40.80542
G1 X139.847 Y50.511 E40.86841
G1 X140.044 Y49.79 E40.89327
G1 X140.243 Y49.261 E40.91207
G1 X140.98 Y47.52 E40.97495
G1 X141.308 Y46.848 E40.99982
G1 X141.609 Y46.355 E41.01903
G1 X142.662 Y44.782 E41.08199
G1 X143.111 Y44.183 E41.10689
G1 X143.494 Y43.762 E41.12582
G1 X144.822 Y42.415 E41.18873
G1 X145.375 Y41.911 E41.21362
G1 X145.828 Y41.57 E41.23248
G1 X147.387 Y40.493 E41.2955
G1 X148.025 Y40.101 E41.3204
G1 X148.386 Y39.918 E41.33387
G1 X149.67 Y39.314 E41.38106
G1 X150.363 Y39.032 E41.40595
G1 X150.749 Y38.911 E41.4194
G1 X152.571 Y38.397 E41.48236
G1 X153.301 Y38.233 E41.50725
G1 X153.714 Y38.175 E41.52112
G1 X155.127 Y38.021 E41.5684
G1 X155.874 Y37.98 E41.59328
G1 X156.266 Y37.99 E41.60632
G1 X158.155 Y38.093 E41.66924
G1 X158.899 Y38.174 E41.69413
G1 X159.46 Y38.289 E41.71318
G1 X161.297 Y38.745 E41.77613
G1 X162.013 Y38.964 E41.80104
G1 X162.398 Y39.118 E41.81483
G1 X163.702 Y39.684 E41.86211
G1 X164.371 Y40.018 E41.88698
G1 X164.715 Y40.226 E41.90035
G1 X166.304 Y41.253 E41.96328
G1 X166.909 Y41.692 E41.98814
G1 X167.336 Y42.067 E42.00704
G1 X168.705 Y43.373 E42.06997
G1 X169.218 Y43.918 E42.09486
G1 X169.569 Y44.369 E42.11387
G1 X170.669 Y45.909 E42.17682
G1 X171.071 Y46.54 E42.2017
G1 X171.331 Y47.049 E42.22071
G1 X172.123 Y48.768 E42.28366
G1 X172.399 Y49.463 E42.30853
G1 X172.514 Y49.838 E42.32158
G1 X172.891 Y51.207 E42.36881
G1 X173.042 Y51.887 E42.39198
G1 X173.122 Y52.355 E42.40777
G1 X173.208 Y53.098 E42.43265
G1 X173.215 Y53.846 E42.45753
G1 X173.142 Y54.59 E42.48239
G1 X173.009 Y55.231 E42.50416
G1 X173.07 Y55.486 E42.51288
G1 X173.166 Y56.228 E42.53777
G1 X173.181 Y56.976 E42.56265
G1 X173.117 Y57.721 E42.58752
G1 X172.942 Y58.577 E42.61658
G1 X172.455 Y60.378 E42.67863
G1 X172.222 Y61.089 E42.70352
G1 X171.998 Y61.602 E42.72214
G1 X171.185 Y63.281 E42.78418
G1 X170.824 Y63.936 E42.80906
G1 X170.777 Y64.005 E42.81184
G1 X170.766 Y150.355 E45.68385
G1 X170.726 Y151.102 E45.70873
G1 X170.672 Y151.497 E45.72199
G1 X170.512 Y152.464 E45.75459
G1 X170.351 Y153.194 E45.77945
G1 X170.074 Y153.997 E45.80771
G1 X169.575 Y155.203 E45.85111
G1 X169.253 Y155.878 E45.87599
G1 X168.66 Y156.788 E45.91211
G1 X167.865 Y157.824 E45.95555
G1 X167.379 Y158.393 E45.98044
G1 X166.757 Y158.971 E46.00868
G1 X165.999 Y159.594 E46.04131
G1 X165.396 Y160.037 E46.0662
G1 X164.648 Y160.465 E46.09486
G1 X163.477 Y161.042 E46.13828
G1 X162.789 Y161.336 E46.16317
G1 X161.97 Y161.581 E46.1916
G1 X161.016 Y161.803 E46.22418
G1 X160.279 Y161.933 E46.24907
G1 X159.431 Y161.985 E46.27733
G1 X33.78 Y162.029 E50.45649
G1 X33.033 Y161.989 E50.48138
G1 X32.295 Y161.87 E50.50624
G1 X31.573 Y161.673 E50.53113
G1 X30.877 Y161.4 E50.556
G1 X30.214 Y161.054 E50.58087
G1 X29.591 Y160.639 E50.60577
G1 X29.016 Y160.16 E50.63066
G1 X28.496 Y159.623 E50.65552
G1 X28.036 Y159.033 E50.6804
G1 X27.642 Y158.397 E50.70529
G1 X27.317 Y157.723 E50.73018
G1 X27.067 Y157.018 E50.75505
G1 X26.893 Y156.291 E50.77992
G1 X26.797 Y155.549 E50.8048
G1 X26.778 Y155.029 E50.82211
G1 X26.778 Y140.028 E51.32104
G1 X26.818 Y139.281 E51.34592
G1 X26.937 Y138.543 E51.37079
G1 X27.135 Y137.821 E51.39569
G1 X27.408 Y137.125 E51.42055
G1 X27.755 Y136.462 E51.44544
G1 X28.17 Y135.839 E51.47034
G1 X28.649 Y135.265 E51.49521
G1 X29.186 Y134.744 E51.52009
G1 X29.776 Y134.285 E51.54495
G1 X30.412 Y133.89 E51.56986
G1 X31.086 Y133.566 E51.59473
G1 X31.791 Y133.316 E51.61961
G1 X32.519 Y133.142 E51.6445
G0 F900 X32.861 Y133.492
G1 F600 X33.778 Y133.428 E51.67508
G1 X55.988 Y133.428 E52.41378
G1 X56.713 Y133.468 E52.43793
G1 X57.43 Y133.587 E52.46211
G1 X58.129 Y133.785 E52.48627
G1 X58.619 Y133.984 E52.50386
G1 X58.958 Y133.837 E52.51615
G1 X59.652 Y133.623 E52.54031
G1 X60.365 Y133.487 E52.56445
G1 X61.245 Y133.428 E52.59378
G1 X138.778 Y133.418 E55.17254
G1 X139.624 Y133.3 E55.20095
G1 X139.922 Y133.208 E55.21133
G1 X140.55 Y132.895 E55.23466
G1 X141.051 Y132.517 E55.25554
G1 X141.469 Y132.059 E55.27616
G1 X141.794 Y131.533 E55.29673
G1 X142.02 Y130.951 E55.31749
G1 X142.134 Y130.336 E55.33829
G1 X142.176 Y63.871 E57.54893
G1 X141.945 Y63.52 E57.56291
G1 X141.702 Y63.058 E57.58027
G1 X140.885 Y61.351 E57.64321
G1 X140.498 Y60.338 E57.67928
G1 X140.103 Y58.974 E57.72651
G1 X139.908 Y58.062 E57.75753
G1 X139.709 Y56.654 E57.80482
G1 X139.646 Y55.573 E57.84084
G1 X139.691 Y53.684 E57.90369
G1 X139.748 Y52.96 E57.92784
G1 X139.838 Y52.447 E57.94516
G1 X140.238 Y50.596 E58.00815
G1 X140.43 Y49.895 E58.03232
G1 X140.611 Y49.417 E58.04932
G1 X141.348 Y47.676 E58.1122
G1 X141.668 Y47.024 E58.13636
G1 X141.941 Y46.578 E58.15375
G1 X142.994 Y45.005 E58.21671
G1 X143.431 Y44.424 E58.24089
G1 X143.779 Y44.042 E58.25808
G1 X145.107 Y42.695 E58.32099
G1 X145.645 Y42.207 E58.34515
G1 X146.056 Y41.899 E58.36223
G1 X147.615 Y40.822 E58.42526
G1 X148.557 Y40.28 E58.4614
G1 X149.841 Y39.676 E58.5086
G1 X150.858 Y39.296 E58.54471
G1 X152.68 Y38.782 E58.60767
G1 X153.389 Y38.623 E58.63184
G1 X153.757 Y38.573 E58.64419
G1 X155.17 Y38.419 E58.69147
G1 X156.244 Y38.39 E58.7272
G1 X158.133 Y38.493 E58.79012
G1 X158.855 Y38.572 E58.81428
G1 X159.364 Y38.677 E58.83157
G1 X161.201 Y39.133 E58.89452
G1 X161.895 Y39.347 E58.91867
G1 X162.239 Y39.485 E58.931
G1 X163.543 Y40.051 E58.97828
G1 X164.498 Y40.562 E59.01431
G1 X166.087 Y41.589 E59.07723
G1 X166.674 Y42.016 E59.10138
G1 X167.06 Y42.357 E59.11851
G1 X168.429 Y43.663 E59.18144
G1 X168.926 Y44.192 E59.20558
G1 X169.244 Y44.602 E59.22284
G1 X170.344 Y46.142 E59.28578
G1 X170.733 Y46.755 E59.30993
G1 X170.967 Y47.216 E59.32712
