;FLAVOR:RepRap
;TIME:3805
;Filament used: 4.40875m
;Layer height: 0.2
;Generated with Cura_SteamEngine master
M190 S90
M104 S250
M109 S250
G21 ;metric values
G90 ;absolute positioning
M82 ;set extruder to absolute mode
M107 ;start with the fan off
G28 X0 Y0 ;move X/Y to min endstops
G28 Z0 ;move Z to min endstops
G1 Z15.0 F9000 ;move the platform down 15mm
G92 E0 ;zero the extruded length
G1 F200 E3 ;extrude 3mm of feed stock
G92 E0 ;zero the extruded length again
G1 F9000
;Put printing message on LCD screen
M117 Printing...
;LAYER_COUNT:40
;LAYER:0
M107
G1 F1500 E-2
G0 F2700 X51.865 Y70.188 Z0.2
;TYPE:SKIRT
G1 F1500 E0
G1 F1800 X52.314 Y69.869 E0.01832
G1 X52.669 Y69.678 E0.03173
G1 X54.03 Y69.038 E0.08175
G1 X54.544 Y68.841 E0.10006
G1 X54.935 Y68.744 E0.11346
G1 X56.413 Y68.462 E0.1635
G1 X57.127 Y68.395 E0.18735
G1 X143.252 Y68.43 E3.05188
G1 X143.801 Y68.47 E3.07019
G1 X144.194 Y68.549 E3.08352
G1 X145.652 Y68.923 E3.13359
G1 X146.175 Y69.098 E3.15193
G1 X146.539 Y69.274 E3.16538
G1 X147.857 Y69.999 E3.21541
G1 X148.32 Y70.299 E3.23376
G1 X148.626 Y70.557 E3.24707
G1 X149.722 Y71.585 E3.29705
G1 X150.095 Y71.99 E3.31536
G1 X150.33 Y72.32 E3.32884
G1 X151.137 Y73.591 E3.37891
G1 X151.398 Y74.076 E3.39723
G1 X151.543 Y74.455 E3.41073
G1 X152.007 Y75.885 E3.46073
G1 X152.139 Y76.42 E3.47906
G1 X152.185 Y76.818 E3.49238
G1 X152.28 Y78.319 E3.54241
G1 X152.275 Y78.87 E3.56073
G1 X152.221 Y79.272 E3.57423
G1 X151.939 Y80.749 E3.62424
G1 X151.796 Y81.281 E3.64256
G1 X151.645 Y81.652 E3.65588
G1 X151.005 Y83.014 E3.70593
G1 X150.735 Y83.494 E3.72425
G1 X150.495 Y83.819 E3.73769
G1 X149.537 Y84.978 E3.7877
G1 X149.156 Y85.376 E3.80603
G1 X148.841 Y85.632 E3.81953
G1 X147.624 Y86.516 E3.86956
G1 X147.156 Y86.806 E3.88787
G1 X146.789 Y86.975 E3.90131
G1 X145.391 Y87.528 E3.95131
G1 X144.865 Y87.693 E3.96965
G1 X144.47 Y87.764 E3.98299
G1 X142.977 Y87.953 E4.03305
G1 X142.5 Y87.983 E4.04894
G1 X135.899 Y87.984 E4.26849
G1 X135.84 Y88.561 E4.28779
G1 X135.637 Y89.569 E4.32199
G1 X135.49 Y90.1 E4.34031
G1 X135.291 Y90.558 E4.35692
G1 X134.851 Y91.413 E4.3889
G1 X134.564 Y91.883 E4.40722
G1 X134.24 Y92.277 E4.42418
G1 X133.438 Y93.13 E4.46313
G1 X133.033 Y93.503 E4.48144
G1 X132.512 Y93.851 E4.50228
G1 X131.5 Y94.412 E4.54076
G1 X130.772 Y94.721 E4.56707
G1 X129.203 Y95.202 E4.62165
G1 X128.745 Y95.312 E4.63732
G1 X127.867 Y95.466 E4.66696
G1 X127.369 Y95.52 E4.68362
G1 X125.139 Y95.613 E4.75786
G1 X124.663 Y95.603 E4.77369
G1 X122.472 Y95.419 E4.84682
G1 X121.795 Y95.299 E4.86969
G1 X120.217 Y94.871 E4.92407
G1 X119.549 Y94.621 E4.9478
G1 X118.761 Y94.237 E4.97695
G1 X118.489 Y94.502 E4.98958
G1 X118.043 Y94.826 E5.00792
G1 X117.555 Y95.081 E5.02623
G1 X117.035 Y95.264 E5.04456
G1 X116.494 Y95.369 E5.06289
G1 X116.041 Y95.396 E5.07799
G1 X112.955 Y95.396 E5.18063
G1 X112.405 Y95.356 E5.19897
G1 X111.867 Y95.237 E5.2173
G1 X111.352 Y95.041 E5.23562
G1 X110.871 Y94.773 E5.25394
G1 X110.433 Y94.439 E5.27226
G1 X110.049 Y94.044 E5.29058
G1 X109.725 Y93.598 E5.30892
G1 X109.51 Y93.187 E5.32434
G1 X109.08 Y93.794 E5.34908
G1 X108.73 Y94.219 E5.3674
G1 X108.321 Y94.589 E5.38574
G1 X107.864 Y94.896 E5.40405
G1 X107.367 Y95.134 E5.42238
G1 X106.841 Y95.297 E5.44069
G1 X106.296 Y95.383 E5.45905
G1 X105.98 Y95.396 E5.46956
G1 X102.472 Y95.396 E5.58624
G1 X101.922 Y95.356 E5.60458
G1 X101.384 Y95.237 E5.62291
G1 X101.124 Y95.138 E5.63216
G1 X100.766 Y95.264 E5.64479
G1 X100.225 Y95.369 E5.66311
G1 X99.772 Y95.396 E5.67821
G1 X96.308 Y95.396 E5.79342
G1 X95.758 Y95.356 E5.81176
G1 X95.22 Y95.237 E5.83009
G1 X94.705 Y95.041 E5.84842
G1 X94.224 Y94.773 E5.86673
G1 X93.786 Y94.439 E5.88505
G1 X93.524 Y94.17 E5.89754
G1 X93.182 Y94.502 E5.91339
G1 X92.736 Y94.826 E5.93173
G1 X92.248 Y95.081 E5.95004
G1 X91.728 Y95.264 E5.96838
G1 X91.187 Y95.369 E5.98671
G1 X90.734 Y95.396 E6.0018
G1 X87.269 Y95.396 E6.11705
G1 X86.719 Y95.356 E6.13539
G1 X86.181 Y95.237 E6.15371
G1 X85.666 Y95.041 E6.17204
G1 X85.185 Y94.773 E6.19036
G1 X84.783 Y94.466 E6.20718
G1 X84.772 Y94.472 E6.2076
G1 X84.268 Y94.695 E6.22593
G1 X83.913 Y94.803 E6.23827
G1 X82.697 Y95.109 E6.27997
G1 X82.142 Y95.206 E6.29871
G1 X80.588 Y95.359 E6.35065
G1 X80.226 Y95.377 E6.3627
G1 X72.837 Y95.396 E6.60846
G1 X72.287 Y95.357 E6.6268
G1 X71.749 Y95.24 E6.64512
G1 X71.233 Y95.046 E6.66345
G1 X70.751 Y94.779 E6.68178
G1 X70.368 Y94.487 E6.6978
G1 X70.158 Y94.598 E6.7057
G1 X69.592 Y94.795 E6.72563
G1 X68.427 Y95.1 E6.76568
G1 X67.826 Y95.207 E6.78599
G1 X66.223 Y95.36 E6.83954
G1 X65.873 Y95.377 E6.8512
G1 X59.066 Y95.396 E7.0776
G1 X58.516 Y95.358 E7.09594
G1 X57.978 Y95.24 E7.11426
G1 X57.462 Y95.046 E7.13259
G1 X56.98 Y94.779 E7.15092
G1 X56.541 Y94.446 E7.16925
G1 X56.156 Y94.052 E7.18757
G1 X55.831 Y93.607 E7.2059
G1 X55.574 Y93.12 E7.22421
G1 X55.39 Y92.6 E7.24256
G1 X55.283 Y92.06 E7.26087
G1 X55.255 Y91.596 E7.27633
G1 X55.255 Y87.683 E7.40647
G1 X54.935 Y87.622 E7.41731
G1 X54.402 Y87.479 E7.43566
G1 X54.03 Y87.328 E7.44902
G1 X52.669 Y86.688 E7.49904
G1 X52.189 Y86.418 E7.51736
G1 X51.865 Y86.178 E7.53077
G1 X50.705 Y85.219 E7.58083
G1 X50.307 Y84.838 E7.59915
G1 X50.052 Y84.524 E7.61261
G1 X49.168 Y83.308 E7.66261
G1 X48.878 Y82.84 E7.68092
G1 X48.708 Y82.47 E7.69446
G1 X48.156 Y81.072 E7.74445
G1 X47.991 Y80.546 E7.76279
G1 X47.92 Y80.156 E7.77597
G1 X47.73 Y78.664 E7.826
G1 X47.701 Y78.114 E7.84432
G1 X47.73 Y77.705 E7.85796
G1 X47.92 Y76.211 E7.90805
G1 X48.029 Y75.67 E7.9264
G1 X48.156 Y75.294 E7.9396
G1 X48.708 Y73.896 E7.98959
G1 X48.947 Y73.4 E8.0079
G1 X49.168 Y73.058 E8.02145
G1 X50.052 Y71.842 E8.07145
G1 X50.408 Y71.421 E8.08979
G1 X50.705 Y71.147 E8.10323
G1 X51.865 Y70.188 E8.15329
G0 F2700 X52.12 Y70.497
G1 F1800 X52.546 Y70.196 E8.17064
G1 X52.839 Y70.04 E8.18168
G1 X54.2 Y69.4 E8.2317
G1 X54.687 Y69.215 E8.24903
G1 X55.01 Y69.137 E8.26008
G1 X56.488 Y68.855 E8.31012
G1 X57.126 Y68.795 E8.33144
G1 X143.251 Y68.83 E11.19597
G1 X143.771 Y68.87 E11.21331
G1 X144.095 Y68.937 E11.22432
G1 X145.553 Y69.311 E11.27438
G1 X146.046 Y69.478 E11.29169
G1 X146.347 Y69.625 E11.30283
G1 X147.665 Y70.35 E11.35286
G1 X148.101 Y70.635 E11.37019
G1 X148.352 Y70.849 E11.38116
G1 X149.448 Y71.877 E11.43114
G1 X149.8 Y72.262 E11.44849
G1 X149.992 Y72.535 E11.45959
G1 X150.799 Y73.806 E11.50966
G1 X151.044 Y74.266 E11.527
G1 X151.163 Y74.579 E11.53814
G1 X151.627 Y76.009 E11.58814
G1 X151.749 Y76.515 E11.60545
G1 X151.786 Y76.843 E11.61643
G1 X151.881 Y78.344 E11.66645
G1 X151.874 Y78.865 E11.68378
G1 X151.828 Y79.197 E11.69493
G1 X151.546 Y80.674 E11.74494
G1 X151.409 Y81.177 E11.76228
G1 X151.283 Y81.482 E11.77326
G1 X150.643 Y82.844 E11.82331
G1 X150.386 Y83.297 E11.84063
G1 X150.187 Y83.564 E11.85171
G1 X149.229 Y84.723 E11.90172
G1 X148.867 Y85.098 E11.91906
G1 X148.606 Y85.308 E11.9302
G1 X147.389 Y86.192 E11.98023
G1 X146.945 Y86.465 E11.99757
G1 X146.642 Y86.603 E12.00864
G1 X145.244 Y87.156 E12.05864
G1 X144.746 Y87.31 E12.07598
G1 X144.42 Y87.367 E12.08699
G1 X142.927 Y87.556 E12.13704
G1 X142.5 Y87.583 E12.15127
G1 X135.516 Y87.584 E12.38356
G1 X135.515 Y87.824 E12.39154
G1 X135.448 Y88.482 E12.41354
G1 X135.245 Y89.49 E12.44774
G1 X135.103 Y89.992 E12.46509
G1 X134.935 Y90.375 E12.479
G1 X134.495 Y91.23 E12.51098
G1 X134.222 Y91.674 E12.52832
G1 X133.949 Y92.003 E12.54254
G1 X133.147 Y92.856 E12.58148
G1 X132.762 Y93.207 E12.59881
G1 X132.318 Y93.501 E12.61652
G1 X131.306 Y94.062 E12.65501
G1 X130.655 Y94.339 E12.67854
G1 X129.086 Y94.82 E12.73312
G1 X128.676 Y94.918 E12.74714
G1 X127.798 Y95.072 E12.77679
G1 X127.353 Y95.12 E12.79167
G1 X125.123 Y95.213 E12.86591
G1 X124.696 Y95.204 E12.88011
G1 X122.505 Y95.02 E12.95324
G1 X121.9 Y94.913 E12.97368
G1 X120.322 Y94.485 E13.02806
G1 X119.724 Y94.261 E13.0493
G1 X118.664 Y93.745 E13.08851
G1 X118.489 Y93.956 E13.09763
G1 X118.099 Y94.302 E13.11497
G1 X117.661 Y94.585 E13.13231
G1 X117.186 Y94.798 E13.14963
G1 X116.683 Y94.935 E13.16696
G1 X116.041 Y94.996 E13.18841
G1 X112.955 Y94.996 E13.29105
G1 X112.435 Y94.956 E13.3084
G1 X111.928 Y94.837 E13.32572
G1 X111.445 Y94.642 E13.34305
G1 X110.997 Y94.376 E13.36038
G1 X110.595 Y94.044 E13.37772
G1 X110.249 Y93.654 E13.39506
G1 X109.966 Y93.216 E13.4124
G1 X109.753 Y92.741 E13.42972
G1 X109.637 Y92.316 E13.44437
G1 X108.754 Y93.562 E13.49516
G1 X108.421 Y93.963 E13.5125
G1 X108.03 Y94.308 E13.52984
G1 X107.592 Y94.59 E13.54717
G1 X107.115 Y94.801 E13.56452
G1 X106.612 Y94.937 E13.58185
G1 X105.98 Y94.996 E13.60296
G1 X102.472 Y94.996 E13.71963
G1 X101.952 Y94.956 E13.73698
G1 X101.445 Y94.837 E13.7543
G1 X101.121 Y94.706 E13.76593
G1 X100.917 Y94.798 E13.77337
G1 X100.414 Y94.935 E13.79071
G1 X99.772 Y94.996 E13.81216
G1 X96.308 Y94.996 E13.92737
G1 X95.788 Y94.956 E13.94472
G1 X95.281 Y94.837 E13.96204
G1 X94.798 Y94.642 E13.97936
G1 X94.35 Y94.376 E13.99669
G1 X93.948 Y94.044 E14.01403
G1 X93.602 Y93.654 E14.03137
G1 X93.525 Y93.535 E14.03609
G1 X93.514 Y93.554 E14.03682
G1 X93.182 Y93.956 E14.05416
G1 X92.792 Y94.302 E14.0715
G1 X92.354 Y94.585 E14.08884
G1 X91.879 Y94.798 E14.10616
G1 X91.376 Y94.935 E14.1235
G1 X90.734 Y94.996 E14.14495
G1 X87.269 Y94.996 E14.26019
G1 X86.749 Y94.956 E14.27754
G1 X86.242 Y94.837 E14.29486
G1 X85.759 Y94.642 E14.31218
G1 X85.311 Y94.376 E14.32951
G1 X84.909 Y94.044 E14.34685
G1 X84.85 Y93.977 E14.34982
G1 X84.584 Y94.119 E14.35985
G1 X84.107 Y94.328 E14.37717
G1 X83.816 Y94.415 E14.38728
G1 X82.6 Y94.721 E14.42898
G1 X82.103 Y94.808 E14.44576
G1 X80.549 Y94.961 E14.4977
G1 X80.225 Y94.977 E14.50849
G1 X72.836 Y94.996 E14.75425
G1 X72.316 Y94.957 E14.77159
G1 X71.808 Y94.84 E14.78893
G1 X71.325 Y94.646 E14.80624
G1 X70.876 Y94.381 E14.82358
G1 X70.473 Y94.05 E14.84093
G1 X70.431 Y94.003 E14.84303
G1 X69.971 Y94.243 E14.86028
G1 X69.491 Y94.408 E14.87716
G1 X68.326 Y94.713 E14.91722
G1 X67.788 Y94.809 E14.93539
G1 X66.185 Y94.962 E14.98895
G1 X65.871 Y94.977 E14.99941
G1 X59.064 Y94.996 E15.22581
G1 X58.545 Y94.957 E15.24312
G1 X58.037 Y94.84 E15.26046
G1 X57.553 Y94.646 E15.2778
G1 X57.105 Y94.381 E15.29512
G1 X56.702 Y94.05 E15.31246
G1 X56.355 Y93.662 E15.32977
G1 X56.071 Y93.225 E15.34711
G1 X55.857 Y92.75 E15.36444
G1 X55.718 Y92.247 E15.38179
G1 X55.655 Y91.596 E15.40355
G1 X55.655 Y87.352 E15.5447
G1 X55.01 Y87.229 E15.56654
G1 X54.507 Y87.092 E15.58388
G1 X54.2 Y86.966 E15.59492
G1 X52.839 Y86.326 E15.64494
G1 X52.386 Y86.069 E15.66226
G1 X52.12 Y85.869 E15.67333
G1 X50.96 Y84.91 E15.72339
G1 X50.585 Y84.549 E15.7407
G1 X50.376 Y84.289 E15.7518
G1 X49.492 Y83.073 E15.8018
G1 X49.219 Y82.629 E15.81914
G1 X49.08 Y82.323 E15.83032
G1 X48.528 Y80.925 E15.88031
G1 X48.374 Y80.427 E15.89764
G1 X48.317 Y80.106 E15.90849
G1 X48.127 Y78.614 E15.95851
G1 X48.101 Y78.093 E15.97586
G1 X48.127 Y77.755 E15.98714
G1 X48.317 Y76.261 E16.03723
G1 X48.422 Y75.751 E16.05455
G1 X48.528 Y75.441 E16.06544
G1 X49.08 Y74.043 E16.11543
G1 X49.308 Y73.575 E16.13275
G1 X49.492 Y73.293 E16.14395
G1 X50.376 Y72.077 E16.19395
G1 X50.714 Y71.68 E16.21129
G1 X50.96 Y71.456 E16.22236
G1 X52.12 Y70.497 E16.27242
G0 F2700 X52.374 Y70.805
G1 F1800 X52.776 Y70.525 E16.28871
G1 X53.009 Y70.402 E16.29748
G1 X54.37 Y69.762 E16.3475
G1 X54.829 Y69.591 E16.36379
G1 X55.085 Y69.53 E16.37254
G1 X56.563 Y69.248 E16.42259
G1 X57.126 Y69.195 E16.4414
G1 X143.251 Y69.23 E19.30592
G1 X143.739 Y69.27 E19.32221
G1 X143.995 Y69.324 E19.33091
G1 X145.453 Y69.698 E19.38098
G1 X145.916 Y69.858 E19.39727
G1 X146.154 Y69.975 E19.40609
G1 X147.472 Y70.7 E19.45612
G1 X147.88 Y70.971 E19.47241
G1 X148.078 Y71.141 E19.48109
G1 X149.174 Y72.169 E19.53107
G1 X149.503 Y72.532 E19.54736
G1 X149.655 Y72.749 E19.55618
G1 X150.462 Y74.02 E19.60625
G1 X150.689 Y74.453 E19.62251
G1 X150.783 Y74.702 E19.63136
G1 X151.247 Y76.132 E19.68137
G1 X151.359 Y76.608 E19.69763
G1 X151.387 Y76.869 E19.70636
G1 X151.482 Y78.37 E19.75639
G1 X151.473 Y78.859 E19.77265
G1 X151.435 Y79.122 E19.78149
G1 X151.153 Y80.599 E19.8315
G1 X151.022 Y81.07 E19.84776
G1 X150.921 Y81.312 E19.85649
G1 X150.281 Y82.674 E19.90654
G1 X150.038 Y83.098 E19.92279
G1 X149.878 Y83.309 E19.9316
G1 X148.92 Y84.468 E19.98161
G1 X148.579 Y84.819 E19.99789
G1 X148.371 Y84.984 E20.00672
G1 X147.154 Y85.868 E20.05675
G1 X146.736 Y86.123 E20.07303
G1 X146.494 Y86.231 E20.08185
G1 X145.096 Y86.784 E20.13185
G1 X144.628 Y86.926 E20.14812
G1 X144.37 Y86.97 E20.15682
G1 X142.877 Y87.159 E20.20688
G1 X142.5 Y87.183 E20.21944
G1 X135.117 Y87.184 E20.465
G1 X135.115 Y87.823 E20.48625
G1 X135.056 Y88.403 E20.50564
G1 X134.853 Y89.411 E20.53984
G1 X134.717 Y89.882 E20.55615
G1 X134.58 Y90.192 E20.56742
G1 X134.14 Y91.047 E20.5994
G1 X133.881 Y91.462 E20.61567
G1 X133.658 Y91.729 E20.62724
G1 X132.856 Y92.582 E20.66619
G1 X132.492 Y92.91 E20.68248
G1 X132.125 Y93.151 E20.69709
G1 X131.113 Y93.712 E20.73557
G1 X130.537 Y93.956 E20.75638
G1 X128.968 Y94.437 E20.81096
G1 X128.607 Y94.524 E20.82331
G1 X127.729 Y94.678 E20.85296
G1 X127.336 Y94.72 E20.8661
G1 X125.106 Y94.813 E20.94034
G1 X124.73 Y94.805 E20.95285
G1 X122.539 Y94.621 E21.02598
G1 X122.005 Y94.527 E21.04401
G1 X120.427 Y94.099 E21.09839
G1 X119.899 Y93.901 E21.11715
G1 X118.833 Y93.382 E21.15658
G1 X118.554 Y93.217 E21.16736
G1 X118.423 Y93.42 E21.1754
G1 X118.095 Y93.783 E21.19167
G1 X117.712 Y94.088 E21.20795
G1 X117.284 Y94.326 E21.22424
G1 X116.824 Y94.492 E21.24051
G1 X116.343 Y94.581 E21.25678
G1 X116.041 Y94.596 E21.26683
G1 X112.955 Y94.596 E21.36947
G1 X112.467 Y94.556 E21.38576
G1 X111.992 Y94.437 E21.40205
G1 X111.543 Y94.243 E21.41831
G1 X111.131 Y93.978 E21.43461
G1 X110.768 Y93.65 E21.45088
G1 X110.463 Y93.267 E21.46716
G1 X110.225 Y92.839 E21.48345
G1 X110.059 Y92.379 E21.49972
G1 X109.97 Y91.898 E21.51599
G1 X109.955 Y91.596 E21.52604
G1 X109.955 Y91.176 E21.54001
G1 X108.427 Y93.331 E21.62788
G1 X108.113 Y93.706 E21.64415
G1 X107.741 Y94.025 E21.66045
G1 X107.323 Y94.279 E21.67671
G1 X106.869 Y94.461 E21.69298
G1 X106.391 Y94.568 E21.70927
G1 X105.98 Y94.596 E21.72297
G1 X102.472 Y94.596 E21.83965
G1 X101.984 Y94.556 E21.85594
G1 X101.509 Y94.437 E21.87222
G1 X101.119 Y94.268 E21.88636
G1 X101.015 Y94.326 E21.89032
G1 X100.555 Y94.492 E21.90659
G1 X100.074 Y94.581 E21.92286
G1 X99.772 Y94.596 E21.93291
G1 X96.308 Y94.596 E22.04813
G1 X95.82 Y94.556 E22.06441
G1 X95.345 Y94.437 E22.0807
G1 X94.896 Y94.243 E22.09697
G1 X94.484 Y93.978 E22.11326
G1 X94.121 Y93.65 E22.12953
G1 X93.816 Y93.267 E22.14582
G1 X93.578 Y92.839 E22.1621
G1 X93.522 Y92.683 E22.16762
G1 X93.381 Y93.008 E22.1794
G1 X93.116 Y93.42 E22.19569
G1 X92.788 Y93.783 E22.21197
G1 X92.405 Y94.088 E22.22825
G1 X91.977 Y94.326 E22.24454
G1 X91.517 Y94.492 E22.2608
G1 X91.036 Y94.581 E22.27707
G1 X90.734 Y94.596 E22.28713
G1 X87.269 Y94.596 E22.40238
G1 X86.781 Y94.556 E22.41866
G1 X86.306 Y94.437 E22.43495
G1 X85.857 Y94.243 E22.45122
G1 X85.445 Y93.978 E22.46751
G1 X85.082 Y93.65 E22.48378
G1 X84.943 Y93.475 E22.49121
G1 X84.396 Y93.766 E22.51182
G1 X83.718 Y94.027 E22.53599
G1 X82.502 Y94.333 E22.57769
G1 X82.064 Y94.41 E22.59248
G1 X80.51 Y94.563 E22.64442
G1 X80.224 Y94.577 E22.65394
G1 X72.835 Y94.596 E22.8997
G1 X72.347 Y94.557 E22.91599
G1 X71.872 Y94.44 E22.93226
G1 X71.422 Y94.247 E22.94854
G1 X71.01 Y93.983 E22.96482
G1 X70.646 Y93.655 E22.98111
G1 X70.508 Y93.483 E22.98845
G1 X70.221 Y93.662 E22.9997
G1 X69.786 Y93.887 E23.01599
G1 X69.39 Y94.021 E23.02989
G1 X68.225 Y94.326 E23.06995
G1 X67.75 Y94.41 E23.08599
G1 X66.147 Y94.563 E23.13955
G1 X65.87 Y94.577 E23.14877
G1 X59.063 Y94.596 E23.37517
G1 X58.575 Y94.557 E23.39146
G1 X58.1 Y94.44 E23.40773
G1 X57.65 Y94.247 E23.42401
G1 X57.238 Y93.983 E23.44029
G1 X56.874 Y93.656 E23.45656
G1 X56.568 Y93.274 E23.47284
G1 X56.328 Y92.847 E23.48913
G1 X56.161 Y92.387 E23.50541
G1 X56.071 Y91.906 E23.52169
G1 X56.055 Y91.596 E23.53201
G1 X56.055 Y87.021 E23.68418
G1 X55.085 Y86.836 E23.71702
G1 X54.613 Y86.705 E23.73331
G1 X54.37 Y86.604 E23.74206
G1 X53.009 Y85.964 E23.79209
G1 X52.585 Y85.72 E23.80836
G1 X52.374 Y85.561 E23.81715
G1 X51.214 Y84.602 E23.8672
G1 X50.864 Y84.261 E23.88346
G1 X50.699 Y84.054 E23.89226
G1 X49.815 Y82.838 E23.94226
