;FLAVOR:RepRap
;TIME:2190
;Generated with Cura_SteamEngine 2.3.1
M190 S110
M104 S240
M109 S240
G21 ;metric values
G90 ;absolute positioning
M82 ;set extruder to absolute mode
M107 ;start with the fan off
G28 X0 Y0 ;move X/Y to min endstops
G28 Z0 ;move Z to min endstops
G1 Z15.0 F9000 ;move the platform down 15mm
G92 E0 ;zero the extruded length
G1 F200 E3 ;extrude 3mm of feed stock
G92 E0 ;zero the extruded length again
G1 F9000
;Put printing message on LCD screen
M117 Printing...
;LAYER_COUNT:249
;LAYER:0
M107
G0 F4800 X84.866 Y84.507 Z.2
;TYPE:SKIRT
G1 F1800 X85.316 Y84.165 E0.02105
G1 X85.809 Y83.889 E0.0421
G1 X86.337 Y83.685 E0.06319
G1 X86.887 Y83.558 E0.08421
G1 X87.516 Y83.509 E0.10772
G1 X92.51 Y83.517 E0.29375
G1 X93.074 Y83.558 E0.31482
G1 X93.627 Y83.678 E0.3359
G1 X94.157 Y83.874 E0.35695
G1 X94.654 Y84.144 E0.37801
G1 X95.108 Y84.481 E0.39908
G1 X95.333 Y84.689 E0.41049
G1 X115.314 Y104.672 E1.46317
G1 X115.684 Y105.099 E1.48422
G1 X115.991 Y105.574 E1.50529
G1 X116.227 Y106.087 E1.52632
G1 X116.389 Y106.629 E1.54739
G1 X116.473 Y107.188 E1.56845
G1 X116.485 Y107.496 E1.57993
G1 X116.49 Y112.487 E1.76585
G1 X116.451 Y113.051 E1.78691
G1 X116.332 Y113.604 E1.80799
G1 X116.137 Y114.134 E1.82902
G1 X115.869 Y114.632 E1.85009
G1 X115.533 Y115.087 E1.87116
G1 X115.137 Y115.49 E1.89221
G1 X114.688 Y115.833 E1.91326
G1 X114.194 Y116.11 E1.93435
G1 X113.667 Y116.314 E1.9554
G1 X113.117 Y116.442 E1.97644
G1 X112.462 Y116.491 E2.00091
G1 X96.131 Y116.379 E2.60927
G1 X92.892 Y116.48 E2.72999
G1 X92.774 Y116.482 E2.73439
G1 X87.517 Y116.491 E2.93022
G1 X86.953 Y116.452 E2.95128
G1 X86.4 Y116.334 E2.97234
G1 X85.869 Y116.139 E2.99341
G1 X85.371 Y115.871 E3.01448
G1 X84.916 Y115.536 E3.03553
G1 X84.513 Y115.14 E3.05657
G1 X84.169 Y114.691 E3.07764
G1 X83.893 Y114.198 E3.09869
G1 X83.688 Y113.671 E3.11976
G1 X83.56 Y113.12 E3.14083
G1 X83.51 Y112.491 E3.16433
G1 X83.51 Y87.509 E4.09495
G1 X83.55 Y86.945 E4.11601
G1 X83.669 Y86.392 E4.13708
G1 X83.865 Y85.862 E4.15813
G1 X84.133 Y85.365 E4.17916
G1 X84.469 Y84.91 E4.20023
G1 X84.866 Y84.507 E4.22131
G0 F4800 X85.257 Y84.701
G1 F1800 X85.699 Y84.398 E4.24127
G1 X86.182 Y84.163 E4.26128
G1 X86.693 Y84.003 E4.28123
G1 X87.223 Y83.92 E4.30121
G1 X87.516 Y83.909 E4.31213
G1 X92.51 Y83.917 E4.49817
G1 X93.044 Y83.958 E4.51812
G1 X93.567 Y84.078 E4.5381
G1 X94.066 Y84.274 E4.55808
G1 X94.531 Y84.542 E4.57807
G1 X95.05 Y84.972 E4.60318
G1 X115.031 Y104.955 E5.65585
G1 X115.381 Y105.361 E5.67582
G1 X115.666 Y105.815 E5.69579
G1 X115.881 Y106.306 E5.71576
G1 X116.021 Y106.824 E5.73575
G1 X116.085 Y107.496 E5.76089
G1 X116.09 Y112.487 E5.94681
G1 X116.051 Y113.022 E5.9668
G1 X115.932 Y113.545 E5.98678
G1 X115.737 Y114.045 E6.00677
G1 X115.47 Y114.51 E6.02674
G1 X115.137 Y114.93 E6.04671
G1 X114.746 Y115.297 E6.06669
G1 X114.304 Y115.601 E6.08667
G1 X113.822 Y115.836 E6.10665
G1 X113.31 Y115.996 E6.12663
G1 X112.78 Y116.079 E6.14661
G1 X112.465 Y116.091 E6.15835
G1 X96.122 Y115.978 E6.76717
G1 X92.88 Y116.08 E6.888
G1 X92.773 Y116.082 E6.89198
G1 X87.516 Y116.091 E7.08781
G1 X86.981 Y116.052 E7.1078
G1 X86.458 Y115.934 E7.12777
G1 X85.958 Y115.739 E7.14776
G1 X85.493 Y115.473 E7.16772
G1 X85.072 Y115.14 E7.18771
G1 X84.706 Y114.749 E7.20766
G1 X84.402 Y114.307 E7.22765
G1 X84.166 Y113.825 E7.24764
G1 X84.005 Y113.314 E7.2676
G1 X83.922 Y112.784 E7.28758
G1 X83.91 Y112.491 E7.2985
G1 X83.91 Y87.509 E8.22912
G1 X83.95 Y86.974 E8.2491
G1 X84.069 Y86.451 E8.26908
G1 X84.264 Y85.952 E8.28904
G1 X84.532 Y85.487 E8.30903
G1 X84.865 Y85.067 E8.329
G1 X85.257 Y84.701 E8.34898
G0 F4800 X85.646 Y84.908
G1 F1800 X86.079 Y84.647 E8.36781
G1 X86.547 Y84.457 E8.38663
G1 X87.04 Y84.344 E8.40547
G1 X87.515 Y84.309 E8.42321
G1 X92.509 Y84.317 E8.60924
G1 X93.013 Y84.358 E8.62808
G1 X93.504 Y84.477 E8.6469
G1 X93.971 Y84.673 E8.66577
G1 X94.4 Y84.939 E8.68457
G1 X94.767 Y85.254 E8.70259
G1 X114.748 Y105.237 E9.75526
G1 X115.076 Y105.622 E9.77411
G1 X115.339 Y106.054 E9.79295
G1 X115.532 Y106.521 E9.81177
G1 X115.648 Y107.013 E9.8306
G1 X115.685 Y107.497 E9.84868
G1 X115.69 Y112.488 E10.0346
G1 X115.651 Y112.992 E10.05343
G1 X115.532 Y113.483 E10.07225
G1 X115.338 Y113.95 E10.09109
G1 X115.073 Y114.38 E10.10991
G1 X114.743 Y114.764 E10.12877
G1 X114.357 Y115.09 E10.14759
G1 X113.924 Y115.352 E10.16644
G1 X113.456 Y115.542 E10.18526
G1 X112.963 Y115.656 E10.20411
G1 X112.468 Y115.691 E10.22259
G1 X96.112 Y115.578 E10.83189
G1 X92.867 Y115.68 E10.95283
G1 X92.772 Y115.682 E10.95637
G1 X87.515 Y115.691 E11.1522
G1 X87.011 Y115.652 E11.17103
G1 X86.52 Y115.534 E11.18984
G1 X86.053 Y115.34 E11.20868
G1 X85.622 Y115.075 E11.22753
G1 X85.239 Y114.745 E11.24636
G1 X84.912 Y114.36 E11.26518
G1 X84.65 Y113.927 E11.28403
G1 X84.46 Y113.459 E11.30285
G1 X84.346 Y112.966 E11.3217
G1 X84.31 Y112.491 E11.33944
G1 X84.31 Y87.509 E12.27005
G1 X84.35 Y87.005 E12.28889
G1 X84.469 Y86.514 E12.30771
G1 X84.663 Y86.047 E12.32654
G1 X84.929 Y85.617 E12.34538
G1 X85.259 Y85.234 E12.36421
G1 X85.646 Y84.908 E12.38306
G0 F4800 X88.129 Y86.835
G0 X88.129 Y88.128
G0 X88.171 Y88.17
G0 X88.101 Y88.1
;TYPE:WALL-INNER
G1 F1800 X91.901 Y88.1 E12.52462
G1 X91.901 Y93.1 E12.71087
G1 X96.901 Y93.1 E12.89713
G1 X96.901 Y98.1 E13.08339
G1 X101.9 Y98.1 E13.26961
G1 X101.9 Y103.1 E13.45586
G1 X106.899 Y103.1 E13.64208
G1 X106.899 Y108.1 E13.82834
G1 X111.899 Y108.1 E14.0146
G1 X111.899 Y111.9 E14.15615
G1 X103.1 Y111.9 E14.48393
G1 X103.1 Y106.9 E14.67018
G1 X91.901 Y106.9 E15.08736
G1 X91.901 Y111.9 E15.27362
G1 X88.101 Y111.9 E15.41517
G1 X88.101 Y88.1 E16.30176
G0 F4800 X87.701 Y87.7
;TYPE:WALL-OUTER
G1 F1800 X92.301 Y87.7 E16.47311
G1 X92.301 Y92.7 E16.65937
G1 X97.301 Y92.7 E16.84563
G1 X97.301 Y97.7 E17.03188
G1 X102.3 Y97.7 E17.2181
G1 X102.3 Y102.7 E17.40436
G1 X107.299 Y102.7 E17.59058
G1 X107.299 Y107.7 E17.77683
G1 X112.299 Y107.7 E17.96309
G1 X112.299 Y112.3 E18.13445
G1 X102.7 Y112.3 E18.49202
G1 X102.7 Y107.3 E18.67828
G1 X92.301 Y107.3 E19.06566
G1 X92.301 Y112.3 E19.25191
G1 X87.701 Y112.3 E19.42327
G1 X87.701 Y87.7 E20.33965
G0 F4800 X88.171 Y88.17
G0 X88.28 Y88.28
;TYPE:SKIN
G1 F1800 X91.72 Y91.72 E20.52088
G0 X91.79 Y91.79
G0 F4800 X91.72 Y91.155
G1 F1800 X88.845 Y88.28 E20.67234
G0 X88.775 Y88.21
G0 F4800 X89.411 Y88.28
G1 F1800 X91.72 Y90.589 E20.79398
G0 X91.79 Y90.659
G0 F4800 X91.72 Y90.023
G1 F1800 X89.977 Y88.28 E20.8858
G0 X89.907 Y88.21
G0 F4800 X90.542 Y88.28
G1 F1800 X91.72 Y89.458 E20.94786
G0 X91.79 Y89.528
G0 F4800 X91.72 Y88.892
G1 F1800 X91.108 Y88.28 E20.9801
G0 X91.038 Y88.21
G0 F4800 X88.28 Y88.845
G1 F1800 X91.72 Y92.286 E21.16135
G0 X91.79 Y92.356
G0 F4800 X91.72 Y92.852
G1 F1800 X88.28 Y89.411 E21.3426
G0 X88.21 Y89.341
G0 F4800 X88.28 Y89.977
G1 F1800 X110.021 Y111.718 E22.48795
G0 X110.091 Y111.788
G0 F4800 X110.587 Y111.718
G1 F1800 X107.148 Y108.279 E22.66912
G0 X107.078 Y108.209
G0 F4800 X107.714 Y108.279
G1 F1800 X111.152 Y111.718 E22.85026
G0 X111.222 Y111.788
G0 F4800 X111.719 Y111.719
G1 F1800 X108.279 Y108.279 E23.03149
G0 X108.209 Y108.209
G0 F4800 X108.845 Y108.279
G1 F1800 X111.719 Y111.153 E23.18289
G0 X111.789 Y111.223
G0 F4800 X111.719 Y110.587
G1 F1800 X109.411 Y108.279 E23.30448
G0 X109.341 Y108.209
G0 F4800 X109.977 Y108.279
G1 F1800 X111.719 Y110.022 E23.39628
G0 X111.789 Y110.092
G0 F4800 X111.718 Y109.455
G1 F1800 X110.542 Y108.279 E23.45823
G0 X110.472 Y108.209
G0 F4800 X111.108 Y108.279
G1 F1800 X111.718 Y108.89 E23.49039
G0 X111.788 Y108.96
G0 F4800 X109.455 Y111.718
G1 F1800 X88.28 Y90.542 E24.60595
G0 X88.21 Y90.472
G0 F4800 X88.28 Y91.108
G1 F1800 X108.89 Y111.718 E25.69171
G0 X108.96 Y111.788
G0 F4800 X108.324 Y111.718
G1 F1800 X88.28 Y91.674 E26.74766
G0 X88.21 Y91.604
G0 F4800 X88.28 Y92.239
G1 F1800 X102.758 Y106.718 E27.5104
G0 X102.828 Y106.788
G0 F4800 X102.193 Y106.718
G1 F1800 X88.28 Y92.805 E28.24336
G0 X88.21 Y92.735
G0 F4800 X88.28 Y93.371
G1 F1800 X101.627 Y106.718 E28.9465
G0 X101.697 Y106.788
G0 F4800 X101.061 Y106.718
G1 F1800 X88.28 Y93.937 E29.61982
G0 X88.21 Y93.867
G0 F4800 X88.28 Y94.502
G1 F1800 X100.496 Y106.718 E30.26337
G0 X100.566 Y106.788
G0 F4800 X99.93 Y106.718
G1 F1800 X88.28 Y95.068 E30.87711
G0 X88.21 Y94.998
G0 F4800 X88.28 Y95.634
G1 F1800 X99.364 Y106.718 E31.46103
G0 X99.434 Y106.788
G0 F4800 X98.799 Y106.718
G1 F1800 X88.28 Y96.199 E32.01519
G0 X88.21 Y96.129
G0 F4800 X88.28 Y96.765
G1 F1800 X98.233 Y106.718 E32.53952
G0 X98.303 Y106.788
G0 F4800 X97.667 Y106.718
G1 F1800 X88.28 Y97.331 E33.03404
G0 X88.21 Y97.261
G0 F4800 X88.28 Y97.896
G1 F1800 X97.102 Y106.718 E33.4988
G0 X97.172 Y106.788
G0 F4800 X96.536 Y106.718
G1 F1800 X88.28 Y98.462 E33.93374
G0 X88.21 Y98.392
G0 F4800 X88.28 Y99.028
G1 F1800 X95.97 Y106.718 E34.33886
G0 X96.04 Y106.788
G0 F4800 X95.404 Y106.718
G1 F1800 X88.28 Y99.593 E34.71419
G0 X88.21 Y99.523
G0 F4800 X88.28 Y100.16
G1 F1800 X94.839 Y106.718 E35.0597
G0 X94.909 Y106.788
G0 F4800 X94.273 Y106.718
G1 F1800 X88.28 Y100.725 E35.37542
G0 X88.21 Y100.655
G0 F4800 X88.28 Y101.291
G1 F1800 X93.707 Y106.718 E35.66132
G0 X93.777 Y106.788
G0 F4800 X93.142 Y106.718
G1 F1800 X88.28 Y101.857 E35.91743
G0 X88.21 Y101.787
G0 F4800 X88.28 Y102.423
G1 F1800 X92.576 Y106.718 E36.14372
G0 X92.646 Y106.788
G0 F4800 X92.01 Y106.718
G1 F1800 X88.28 Y102.988 E36.34022
G0 X88.21 Y102.918
G0 F4800 X88.28 Y103.554
G1 F1800 X91.72 Y106.994 E36.52145
G0 X91.79 Y107.064
G0 F4800 X91.72 Y107.56
G1 F1800 X88.28 Y104.12 E36.70267
G0 X88.21 Y104.05
G0 F4800 X88.28 Y104.685
G1 F1800 X91.72 Y108.125 E36.88389
G0 X91.79 Y108.195
G0 F4800 X91.72 Y108.691
G1 F1800 X88.28 Y105.251 E37.06512
G0 X88.21 Y105.181
G0 F4800 X88.28 Y105.817
G1 F1800 X91.72 Y109.257 E37.24634
G0 X91.79 Y109.327
G0 F4800 X91.72 Y109.822
G1 F1800 X88.28 Y106.382 E37.42757
G0 X88.21 Y106.312
G0 F4800 X88.28 Y106.948
G1 F1800 X91.72 Y110.388 E37.60879
G0 X91.79 Y110.458
G0 F4800 X91.72 Y110.954
G1 F1800 X88.28 Y107.514 E37.79001
G0 X88.21 Y107.444
G0 F4800 X88.28 Y108.079
G1 F1800 X91.72 Y111.519 E37.97124
G0 X91.79 Y111.589
G0 F4800 X91.354 Y111.719
G1 F1800 X88.28 Y108.645 E38.13318
G0 X88.21 Y108.575
G0 F4800 X88.28 Y109.211
G1 F1800 X90.788 Y111.719 E38.2653
G0 X90.858 Y111.789
G0 F4800 X90.223 Y111.719
G1 F1800 X88.28 Y109.776 E38.36766
G0 X88.21 Y109.706
G0 F4800 X88.28 Y110.342
G1 F1800 X89.657 Y111.719 E38.44021
G0 X89.727 Y111.789
G0 F4800 X89.091 Y111.719
G1 F1800 X88.28 Y110.908 E38.48293
G0 X88.21 Y110.838
G0 F4800 X88.28 Y111.473
G1 F1800 X88.526 Y111.719 E38.49589
G0 F4800 X91.873 Y106.872
G0 X103.128 Y106.872
G0 X103.28 Y111.199
G1 F1800 X103.799 Y111.718 E38.52323
G0 F4800 X104.364 Y111.718
G1 F1800 X103.28 Y110.633 E38.58037
G0 X103.21 Y110.563
G0 F4800 X103.28 Y110.068
G1 F1800 X104.93 Y111.718 E38.66729
G0 X105 Y111.788
G0 F4800 X105.496 Y111.718
G1 F1800 X103.28 Y109.502 E38.78403
G0 X103.21 Y109.432
G0 F4800 X103.28 Y108.936
G1 F1800 X106.061 Y111.718 E38.93056
G0 X106.131 Y111.788
G0 F4800 X106.627 Y111.718
G1 F1800 X103.28 Y108.371 E39.10689
G0 X103.21 Y108.301
G0 F4800 X103.28 Y107.805
G1 F1800 X107.193 Y111.718 E39.31303
G0 X107.263 Y111.788
G0 F4800 X107.758 Y111.718
G1 F1800 X103.28 Y107.239 E39.54896
G0 X103.21 Y107.169
G0 F4800 X106.719 Y107.285
G1 F1800 X102.714 Y103.28 E39.75995
G0 X102.644 Y103.21
G0 F4800 X103.28 Y103.28
G1 F1800 X106.719 Y106.719 E39.94112
G0 X106.789 Y106.789
G0 F4800 X106.719 Y106.153
G1 F1800 X103.845 Y103.28 E40.0925
G0 X103.775 Y103.21
G0 F4800 X104.411 Y103.28
G1 F1800 X106.718 Y105.587 E40.21404
G0 X106.788 Y105.657
G0 F4800 X106.718 Y105.021
G1 F1800 X104.977 Y103.28 E40.30576
G0 X104.907 Y103.21
G0 F4800 X105.542 Y103.28
G1 F1800 X106.718 Y104.455 E40.36769
G0 X106.788 Y104.525
G0 F4800 X106.718 Y103.89
G1 F1800 X106.108 Y103.28 E40.39982
G0 X106.038 Y103.21
G0 F4800 X102.148 Y103.28
G1 F1800 X106.719 Y107.85 E40.6406
G0 X106.789 Y107.92
G0 F4800 X101.872 Y103.128
G0 X101.719 Y102.85
G1 F1800 X97.148 Y98.28 E40.88138
G0 X97.078 Y98.21
G0 F4800 X97.714 Y98.28
G1 F1800 X101.719 Y102.285 E41.09237
G0 X101.789 Y102.355
G0 F4800 X101.719 Y101.719
G1 F1800 X98.28 Y98.28 E41.27354
G0 X98.21 Y98.21
G0 F4800 X98.845 Y98.28
G1 F1800 X101.719 Y101.153 E41.42492
G0 X101.789 Y101.223
G0 F4800 X101.719 Y100.588
G1 F1800 X99.411 Y98.28 E41.54651
G0 X99.341 Y98.21
G0 F4800 X99.977 Y98.28
G1 F1800 X101.719 Y100.022 E41.63828
G0 X101.789 Y100.092
G0 F4800 X101.719 Y99.456
G1 F1800 X100.542 Y98.28 E41.70026
G0 X100.472 Y98.21
G0 F4800 X101.108 Y98.28
G1 F1800 X101.719 Y98.891 E41.73245
G0 X101.789 Y98.961
G0 F4800 X96.873 Y98.128
G0 X96.72 Y97.852
G1 F1800 X92.148 Y93.279 E41.97334
G0 X92.078 Y93.209
G0 F4800 X92.713 Y93.279
G1 F1800 X96.72 Y97.286 E42.18443
G0 X96.79 Y97.356
G0 F4800 X96.72 Y96.72
G1 F1800 X93.279 Y93.279 E42.36571
G0 X93.209 Y93.209
G0 F4800 X93.845 Y93.279
G1 F1800 X96.72 Y96.155 E42.51719
G0 X96.79 Y96.225
G0 F4800 X96.72 Y95.589
G1 F1800 X94.41 Y93.279 E42.63889
G0 X94.34 Y93.209
G0 F4800 X94.976 Y93.279
G1 F1800 X96.72 Y95.023 E42.73076
G0 X96.79 Y95.093
G0 F4800 X96.72 Y94.458
G1 F1800 X95.542 Y93.279 E42.79285
G0 X95.472 Y93.209
G0 F4800 X96.107 Y93.279
G1 F1800 X96.72 Y93.892 E42.82514
G0 X96.79 Y93.962
G0 F4800 X96.501 Y93.962
;TIME_ELAPSED:42.822952
;LAYER:1
M106 S255
G0 X96.501 Y93.962 Z.3
G0 X96.831 Y98.17
G0 X96.901 Y98.1
;TYPE:WALL-INNER
G1 F2700 X101.9 Y98.1 E42.91825
G1 X101.9 Y103.1 E43.01138
G1 X106.899 Y103.1 E43.10449
G1 X106.899 Y108.1 E43.19762
G1 X111.899 Y108.1 E43.29074
G1 X111.899 Y111.9 E43.36152
G1 X103.1 Y111.9 E43.52541
G1 X103.1 Y106.9 E43.61854
G1 X91.901 Y106.9 E43.82713
G1 X91.901 Y111.9 E43.92026
G1 X88.101 Y111.9 E43.99103
G1 X88.101 Y88.1 E44.43432
G1 X91.901 Y88.1 E44.5051
G1 X91.901 Y93.1 E44.59823
G1 X96.901 Y93.1 E44.69136
G1 X96.901 Y98.1 E44.78449
G0 F4800 X97.301 Y97.7
;TYPE:WALL-OUTER
G1 F2100 X102.3 Y97.7 E44.8776
G1 X102.3 Y102.7 E44.97072
G1 X107.299 Y102.7 E45.06383
G1 X107.299 Y107.7 E45.15696
G1 X112.299 Y107.7 E45.25009
G1 X112.299 Y112.3 E45.33577
G1 X102.7 Y112.3 E45.51456
G1 X102.7 Y107.3 E45.60769
G1 X92.301 Y107.3 E45.80137
G1 X92.301 Y112.3 E45.8945
G1 X87.701 Y112.3 E45.98018
G1 X87.701 Y87.7 E46.43837
G1 X92.301 Y87.7 E46.52405
G1 X92.301 Y92.7 E46.61718
G1 X97.301 Y92.7 E46.71031
G1 X97.301 Y97.7 E46.80344
G0 F4800 X97.447 Y98.279
;TYPE:SKIN
G1 F2100 X88.281 Y107.445 E47.04487
G0 X88.211 Y107.515
G0 F4800 X88.281 Y106.879
G1 F2100 X96.882 Y98.279 E47.27142
G0 X96.952 Y98.209
G0 F4800 X96.72 Y97.875
G1 F2100 X88.281 Y106.314 E47.49371
G0 X88.211 Y106.384
G0 F4800 X88.281 Y105.748
G1 F2100 X96.72 Y97.309 E47.716
G0 X96.79 Y97.239
G0 F4800 X96.72 Y96.744
G1 F2100 X88.281 Y105.182 E47.93827
G0 X88.211 Y105.252
G0 F4800 X88.281 Y104.617
G1 F2100 X96.72 Y96.178 E48.16056
G0 X96.79 Y96.108
G0 F4800 X96.72 Y95.612
G1 F2100 X88.281 Y104.051 E48.38285
G0 X88.211 Y104.121
G0 F4800 X88.281 Y103.485
G1 F2100 X96.72 Y95.047 E48.60512
G0 X96.79 Y94.977
G0 F4800 X96.72 Y94.481
G1 F2100 X88.281 Y102.92 E48.82741
G0 X88.211 Y102.99
G0 F4800 X88.281 Y102.354
G1 F2100 X96.72 Y93.915 E49.0497
G0 X96.79 Y93.845
G0 F4800 X96.72 Y93.35
G1 F2100 X88.281 Y101.788 E49.27198
G0 X88.211 Y101.858
G0 F4800 X88.281 Y101.223
G1 F2100 X96.225 Y93.279 E49.48123
G0 X96.295 Y93.209
G0 F4800 X95.659 Y93.279
G1 F2100 X88.281 Y100.657 E49.67557
G0 X88.211 Y100.727
G0 F4800 X88.281 Y100.091
G1 F2100 X95.093 Y93.279 E49.855
G0 X95.163 Y93.209
G0 F4800 X94.528 Y93.279
G1 F2100 X88.28 Y99.526 E50.01957
G0 X88.21 Y99.596
G0 F4800 X88.28 Y98.961
G1 F2100 X93.962 Y93.279 E50.16923
G0 X94.032 Y93.209
G0 F4800 X93.396 Y93.279
G1 F2100 X88.28 Y98.395 E50.30399
G0 X88.21 Y98.465
G0 F4800 X88.28 Y97.829
G1 F2100 X92.831 Y93.279 E50.42386
G0 X92.901 Y93.209
G0 F4800 X92.265 Y93.279
G1 F2100 X88.28 Y97.263 E50.52881
G0 X88.21 Y97.333
G0 F4800 X88.28 Y96.698
G1 F2100 X91.72 Y93.258 E50.61942
G0 X91.79 Y93.188
G0 F4800 X91.72 Y92.693
G1 F2100 X88.28 Y96.132 E50.71002
G0 X88.21 Y96.202
G0 F4800 X88.28 Y95.566
G1 F2100 X91.72 Y92.127 E50.80062
G0 X91.79 Y92.057
G0 F4800 X91.72 Y91.561
G1 F2100 X88.28 Y95.001 E50.89123
G0 X88.21 Y95.071
G0 F4800 X88.28 Y94.435
