;FLAVOR:RepRap
;TIME:1916
;Filament used: 2.2025m
;Layer height: 0.2
;Generated with Cura_SteamEngine master
M190 S90
M104 S250
M109 S250
G21 ;metric values
G90 ;absolute positioning
M82 ;set extruder to absolute mode
M107 ;start with the fan off
G28 X0 Y0 ;move X/Y to min endstops
G28 Z0 ;move Z to min endstops
G1 Z15.0 F9000 ;move the platform down 15mm
G92 E0 ;zero the extruded length
G1 F200 E3 ;extrude 3mm of feed stock
G92 E0 ;zero the extruded length again
G1 F9000
;Put printing message on LCD screen
M117 Printing...
;LAYER_COUNT:81
;LAYER:0
M107
G1 F1500 E-2
G0 F2700 X83.428 Y83.362 Z0.2
;TYPE:SKIRT
G1 F1500 E0
G1 F1800 X85.439 Y81.573 E0.08952
G1 X85.821 Y81.277 E0.1056
G1 X87.966 Y79.832 E0.19162
G1 X88.391 Y79.586 E0.20795
G1 X90.917 Y78.346 E0.30154
G1 X91.37 Y78.161 E0.31782
G1 X93.892 Y77.325 E0.40619
G1 X94.315 Y77.213 E0.42074
G1 X96.114 Y76.851 E0.48178
G1 X96.536 Y76.792 E0.49595
G1 X99.891 Y76.523 E0.60789
G1 X100.415 Y76.519 E0.62532
G1 X102.668 Y76.667 E0.70042
G1 X103.138 Y76.729 E0.71619
G1 X106.03 Y77.307 E0.81428
G1 X106.512 Y77.439 E0.8309
G1 X108.969 Y78.298 E0.91747
G1 X109.374 Y78.468 E0.93208
G1 X111.409 Y79.472 E1.00755
G1 X111.821 Y79.71 E1.02338
G1 X114.254 Y81.341 E1.1208
G1 X114.623 Y81.624 E1.13627
G1 X116.322 Y83.114 E1.21143
G1 X116.638 Y83.428 E1.22624
G1 X118.427 Y85.439 E1.31577
G1 X118.721 Y85.817 E1.33169
G1 X120.114 Y87.88 E1.41449
G1 X120.341 Y88.268 E1.42944
G1 X121.456 Y90.469 E1.5115
G1 X121.647 Y90.919 E1.52776
G1 X122.66 Y93.848 E1.63084
G1 X122.788 Y94.318 E1.64704
G1 X123.165 Y96.199 E1.71085
G1 X123.221 Y96.593 E1.72409
G1 X123.474 Y99.494 E1.82094
G1 X123.48 Y100.041 E1.83914
G1 X123.287 Y103.009 E1.93806
G1 X123.225 Y103.484 E1.95399
G1 X122.764 Y105.78 E2.03188
G1 X122.639 Y106.24 E2.04774
G1 X121.708 Y108.951 E2.14307
G1 X121.532 Y109.373 E2.15828
G1 X120.541 Y111.384 E2.23285
G1 X120.304 Y111.795 E2.24863
G1 X118.656 Y114.258 E2.34719
G1 X118.366 Y114.635 E2.36301
G1 X116.807 Y116.406 E2.44149
G1 X116.468 Y116.743 E2.45739
G1 X114.341 Y118.594 E2.55117
G1 X113.975 Y118.873 E2.56647
G1 X112.019 Y120.177 E2.64466
G1 X111.602 Y120.417 E2.66067
G1 X109.004 Y121.686 E2.75683
G1 X108.547 Y121.871 E2.77323
G1 X106.082 Y122.68 E2.85952
G1 X105.623 Y122.798 E2.87528
G1 X103.043 Y123.282 E2.96259
G1 X102.611 Y123.337 E2.97707
G1 X100.321 Y123.485 E3.0534
G1 X99.896 Y123.487 E3.06754
G1 X98.236 Y123.398 E3.12283
G1 X97.999 Y123.377 E3.13074
G1 X96.345 Y123.178 E3.18615
G1 X96.068 Y123.134 E3.19548
G1 X94.222 Y122.764 E3.2581
G1 X93.76 Y122.639 E3.27402
G1 X91.05 Y121.709 E3.36931
G1 X90.626 Y121.532 E3.38459
G1 X88.591 Y120.528 E3.46007
G1 X88.179 Y120.29 E3.47589
G1 X85.746 Y118.659 E3.57331
G1 X85.377 Y118.376 E3.58878
G1 X83.678 Y116.886 E3.66394
G1 X83.362 Y116.572 E3.67876
G1 X81.572 Y114.56 E3.76833
G1 X81.276 Y114.177 E3.78443
G1 X79.83 Y112.029 E3.87055
G1 X79.584 Y111.605 E3.88685
G1 X78.345 Y109.081 E3.98037
G1 X78.16 Y108.627 E3.99668
G1 X77.325 Y106.107 E4.08497
G1 X77.213 Y105.685 E4.0995
G1 X76.851 Y103.886 E4.16053
G1 X76.792 Y103.464 E4.1747
G1 X76.523 Y100.108 E4.28668
G1 X76.519 Y99.579 E4.30428
G1 X76.676 Y97.236 E4.38238
G1 X76.735 Y96.786 E4.39748
G1 X77.233 Y94.238 E4.48383
G1 X77.361 Y93.759 E4.50032
G1 X78.292 Y91.05 E4.59559
G1 X78.468 Y90.629 E4.61077
G1 X79.471 Y88.593 E4.68626
G1 X79.71 Y88.179 E4.70216
G1 X81.346 Y85.739 E4.79986
G1 X81.63 Y85.369 E4.81538
G1 X83.115 Y83.677 E4.89025
G1 X83.428 Y83.362 E4.90502
G0 F2700 X83.694 Y83.661
G1 F1800 X85.705 Y81.872 E4.99455
G1 X86.044 Y81.609 E5.00882
G1 X88.189 Y80.164 E5.09484
G1 X88.567 Y79.945 E5.10937
G1 X91.093 Y78.705 E5.20296
G1 X91.496 Y78.541 E5.21743
G1 X94.018 Y77.705 E5.3058
G1 X94.394 Y77.605 E5.31874
G1 X96.193 Y77.243 E5.37978
G1 X96.568 Y77.19 E5.39237
G1 X99.923 Y76.921 E5.50432
G1 X100.389 Y76.918 E5.51982
G1 X102.642 Y77.066 E5.59491
G1 X103.059 Y77.121 E5.6089
G1 X105.951 Y77.699 E5.707
G1 X106.38 Y77.816 E5.72178
G1 X108.837 Y78.675 E5.80836
G1 X109.197 Y78.826 E5.82134
G1 X111.232 Y79.83 E5.89681
G1 X111.598 Y80.042 E5.91088
G1 X114.031 Y81.673 E6.0083
G1 X114.359 Y81.925 E6.02206
G1 X116.058 Y83.415 E6.09722
G1 X116.339 Y83.694 E6.11039
G1 X118.128 Y85.705 E6.19992
G1 X118.389 Y86.041 E6.21407
G1 X119.782 Y88.104 E6.29686
G1 X119.985 Y88.449 E6.31017
G1 X121.1 Y90.65 E6.39224
G1 X121.269 Y91.05 E6.40668
G1 X122.282 Y93.979 E6.50976
G1 X122.396 Y94.396 E6.52414
G1 X122.773 Y96.277 E6.58794
G1 X122.823 Y96.628 E6.59974
G1 X123.076 Y99.529 E6.69659
G1 X123.081 Y100.015 E6.71276
G1 X122.888 Y102.983 E6.81168
G1 X122.832 Y103.405 E6.82584
G1 X122.371 Y105.701 E6.90373
G1 X122.261 Y106.11 E6.91782
G1 X121.33 Y108.821 E7.01315
G1 X121.173 Y109.197 E7.0267
G1 X120.182 Y111.208 E7.10127
G1 X119.972 Y111.573 E7.11528
G1 X118.324 Y114.036 E7.21384
G1 X118.066 Y114.37 E7.22788
G1 X116.507 Y116.141 E7.30636
G1 X116.206 Y116.441 E7.32049
G1 X114.079 Y118.292 E7.41427
G1 X113.753 Y118.541 E7.42792
G1 X111.797 Y119.845 E7.5061
G1 X111.426 Y120.057 E7.52032
G1 X108.828 Y121.326 E7.61648
G1 X108.422 Y121.491 E7.63106
G1 X105.957 Y122.3 E7.71735
G1 X105.549 Y122.405 E7.73136
G1 X102.969 Y122.889 E7.81867
G1 X102.585 Y122.937 E7.83154
G1 X100.295 Y123.085 E7.90786
G1 X99.918 Y123.087 E7.9204
G1 X98.258 Y122.998 E7.97569
G1 X98.047 Y122.98 E7.98274
G1 X96.393 Y122.781 E8.03815
G1 X96.146 Y122.742 E8.04646
G1 X94.3 Y122.372 E8.10908
G1 X93.89 Y122.261 E8.12321
G1 X91.18 Y121.331 E8.21851
G1 X90.803 Y121.174 E8.23209
G1 X88.768 Y120.17 E8.30756
G1 X88.402 Y119.958 E8.32163
G1 X85.969 Y118.327 E8.41905
G1 X85.641 Y118.075 E8.43281
G1 X83.942 Y116.585 E8.50797
G1 X83.661 Y116.306 E8.52114
G1 X81.871 Y114.294 E8.61071
G1 X81.607 Y113.954 E8.62503
G1 X80.161 Y111.806 E8.71115
G1 X79.943 Y111.429 E8.72564
G1 X78.704 Y108.905 E8.81915
G1 X78.539 Y108.502 E8.83364
G1 X77.704 Y105.982 E8.92193
G1 X77.605 Y105.606 E8.93487
G1 X77.243 Y103.807 E8.9959
G1 X77.19 Y103.432 E9.0085
G1 X76.921 Y100.076 E9.12048
G1 X76.918 Y99.606 E9.13611
G1 X77.075 Y97.263 E9.21421
G1 X77.127 Y96.863 E9.22763
G1 X77.625 Y94.315 E9.31398
G1 X77.74 Y93.889 E9.32865
G1 X78.671 Y91.18 E9.42393
G1 X78.826 Y90.806 E9.43739
G1 X79.829 Y88.77 E9.51288
G1 X80.042 Y88.402 E9.52702
G1 X81.678 Y85.962 E9.62473
G1 X81.931 Y85.633 E9.63854
G1 X83.416 Y83.941 E9.71341
G1 X83.694 Y83.661 E9.72654
G1 F1500 E7.72654
G0 F2700 X86.549 Y85.242
G0 X86.586 Y86.585
G0 X86.697 Y86.64
G0 X86.602 Y86.668
;TYPE:WALL-INNER
G1 F1500 E9.72654
G1 F1800 X86.572 Y86.571 E9.72991
G0 X86.673 Y86.602
G0 X86.744 Y86.624
G1 X86.837 Y86.659 E9.73177
G1 X86.89 Y86.679 E9.73365
G1 X87.31 Y86.842 E9.74864
G1 X88.059 Y87.2 E9.77625
G1 X88.874 Y86.482 E9.81237
G1 X88.668 Y85.89 E9.83322
G1 X88.55 Y85.471 E9.8477
G1 X88.501 Y85.266 E9.85471
G1 X88.493 Y85.23 E9.85594
G1 X88.489 Y85.206 E9.85675
G1 X88.434 Y84.929 E9.86614
G0 X88.601 Y85.011
G1 X88.848 Y85.134 E9.87038
G1 X88.88 Y85.152 E9.87155
G1 X89.129 Y85.293 E9.88107
G1 X89.318 Y85.41 E9.88846
G1 X89.822 Y85.757 E9.90881
G1 X90.737 Y85.146 E9.94541
G1 X90.609 Y84.547 E9.96578
G1 X90.545 Y84.108 E9.98054
G1 X90.528 Y83.884 E9.98801
G1 X90.523 Y83.814 E9.99034
G1 X90.502 Y83.549 E9.99918
G1 X90.858 Y83.788 E10.00559
G1 X90.913 Y83.83 E10.00773
G1 X91.161 Y84.016 E10.01804
G1 X91.316 Y84.142 E10.02468
G1 X91.767 Y84.552 E10.04495
G1 X92.754 Y84.062 E10.0816
G1 X92.707 Y83.453 E10.10192
G1 X92.7 Y83.031 E10.11596
G1 X92.713 Y82.783 E10.12422
G1 X92.716 Y82.723 E10.12621
G1 X92.731 Y82.45 E10.13531
G1 X93.061 Y82.742 E10.14218
G1 X93.103 Y82.784 E10.14403
G1 X93.304 Y82.98 E10.15337
G1 X93.864 Y83.605 E10.18128
G1 X94.896 Y83.255 E10.21752
G1 X94.929 Y82.642 E10.23794
G1 X94.981 Y82.196 E10.25287
G1 X95.023 Y81.973 E10.26042
G1 X95.03 Y81.933 E10.26177
G1 X95.083 Y81.651 E10.27132
G1 X95.386 Y81.999 E10.27904
G1 X95.411 Y82.031 E10.28033
G1 X95.594 Y82.264 E10.29018
G1 X96.057 Y82.944 E10.31754
G1 X97.125 Y82.732 E10.35376
G1 X97.238 Y82.129 E10.37416
G1 X97.348 Y81.696 E10.38902
G1 X97.419 Y81.479 E10.39662
G1 X97.434 Y81.433 E10.39822
G1 X97.482 Y81.286 E10.40337
G1 X97.52 Y81.169 E10.40746
G0 X97.639 Y81.336
G1 X97.772 Y81.543 E10.41187
G1 X97.796 Y81.585 E10.4134
G1 X97.933 Y81.815 E10.4223
G1 X98.317 Y82.574 E10.45059
G1 X99.405 Y82.505 E10.48685
G1 X99.587 Y81.941 E10.50657
G1 X99.759 Y81.506 E10.52212
G1 X99.82 Y81.38 E10.52678
G1 X100 Y81.002 E10.54071
G1 X100.179 Y81.38 E10.54833
G1 X100.244 Y81.515 E10.55331
G1 X100.404 Y81.915 E10.56764
G1 X100.6 Y82.504 E10.58828
G1 X101.683 Y82.574 E10.62438
G1 X102.049 Y81.848 E10.65142
G1 X102.223 Y81.553 E10.66281
G1 X102.23 Y81.541 E10.66328
G1 X102.334 Y81.385 E10.66951
G1 X102.479 Y81.167 E10.67822
G0 X102.566 Y81.426
G1 X102.616 Y81.572 E10.68187
G1 X102.62 Y81.586 E10.68236
G1 X102.715 Y81.93 E10.69423
G1 X102.759 Y82.113 E10.70049
G1 X102.875 Y82.732 E10.72143
G1 X103.943 Y82.944 E10.75765
G1 X104.406 Y82.264 E10.78501
G1 X104.611 Y82.002 E10.79607
G1 X104.614 Y81.999 E10.79622
G1 X104.74 Y81.854 E10.8026
G1 X104.917 Y81.651 E10.81156
G0 X104.971 Y81.928
G1 X105.001 Y82.079 E10.81409
G1 X105.001 Y82.083 E10.81423
G1 X105.049 Y82.423 E10.82565
G1 X105.071 Y82.644 E10.83303
G1 X105.105 Y83.255 E10.85339
G1 X106.145 Y83.608 E10.88992
G1 X106.554 Y83.129 E10.91087
G1 X106.841 Y82.834 E10.92456
G1 X107.021 Y82.672 E10.93261
G1 X107.065 Y82.633 E10.93457
G1 X107.19 Y82.521 E10.94015
G1 X107.27 Y82.449 E10.94373
G0 X107.285 Y82.627
G1 X107.297 Y82.892 E10.95001
G1 X107.297 Y82.951 E10.95185
G1 X107.294 Y83.443 E10.96822
G1 X107.246 Y84.062 E10.98887
G1 X108.233 Y84.552 E11.02552
G1 X108.68 Y84.146 E11.0456
G1 X109.048 Y83.856 E11.06118
G1 X109.224 Y83.735 E11.06829
G1 X109.27 Y83.704 E11.07013
G1 X109.403 Y83.612 E11.07551
G1 X109.495 Y83.548 E11.07924
G0 X109.489 Y83.737
G1 X109.468 Y83.992 E11.08538
G1 X109.462 Y84.047 E11.08711
G1 X109.426 Y84.331 E11.09663
G1 X109.272 Y85.152 E11.12442
G1 X110.178 Y85.757 E11.16065
G1 X110.679 Y85.413 E11.18086
G1 X111.056 Y85.187 E11.19548
G1 X111.267 Y85.08 E11.20335
G1 X111.318 Y85.054 E11.20526
G1 X111.562 Y84.93 E11.21436
G1 X111.476 Y85.364 E11.22131
G1 X111.462 Y85.42 E11.22311
G1 X111.388 Y85.703 E11.23284
G1 X111.132 Y86.488 E11.26031
G1 X111.95 Y87.208 E11.29655
G1 X112.486 Y86.934 E11.31657
G1 X112.69 Y86.842 E11.32402
G1 X112.961 Y86.733 E11.33373
G1 X113.019 Y86.71 E11.33581
G1 X113.256 Y86.624 E11.34419
G1 X113.328 Y86.602 E11.3467
G1 X113.428 Y86.571 E11.35018
G0 X113.4 Y86.667
G0 X113.374 Y86.751
G0 X113.342 Y86.834
G1 X113.32 Y86.892 E11.35211
G1 X113.158 Y87.31 E11.36702
G1 X112.8 Y88.059 E11.39463
G1 X113.518 Y88.874 E11.43076
G1 X114.102 Y88.671 E11.45132
G1 X114.529 Y88.55 E11.46608
G1 X114.706 Y88.508 E11.47214
G1 X114.757 Y88.496 E11.47388
G1 X114.809 Y88.486 E11.47564
G1 X115.072 Y88.434 E11.48456
G0 X114.986 Y88.609
G1 X114.877 Y88.828 E11.48789
G1 X114.851 Y88.874 E11.48965
G1 X114.707 Y89.129 E11.49939
G1 X114.595 Y89.31 E11.50647
G1 X114.243 Y89.822 E11.52714
G1 X114.854 Y90.737 E11.56373
G1 X115.454 Y90.608 E11.58414
G1 X115.89 Y90.545 E11.59879
G1 X116.118 Y90.527 E11.6064
G1 X116.179 Y90.523 E11.60843
G1 X116.451 Y90.502 E11.61751
G1 X116.206 Y90.867 E11.62435
G1 X116.169 Y90.915 E11.62624
G1 X115.874 Y91.298 E11.64232
G1 X115.448 Y91.767 E11.66339
G1 X115.938 Y92.754 E11.70004
G1 X116.542 Y92.707 E11.72019
G1 X116.978 Y92.7 E11.73469
G1 X117.217 Y92.713 E11.74265
G1 X117.277 Y92.716 E11.74465
G1 X117.55 Y92.731 E11.75375
G1 X117.258 Y93.061 E11.76062
G1 X117.216 Y93.103 E11.76247
G1 X117.018 Y93.306 E11.7719
G1 X116.395 Y93.864 E11.79971
G1 X116.745 Y94.895 E11.83593
G1 X117.358 Y94.93 E11.85635
G1 X117.796 Y94.979 E11.87101
G1 X118.025 Y95.023 E11.87876
G1 X118.072 Y95.031 E11.88035
G1 X118.349 Y95.083 E11.88972
G1 X118.006 Y95.381 E11.89714
G1 X117.969 Y95.41 E11.89862
G1 X117.74 Y95.59 E11.90831
G1 X117.056 Y96.056 E11.93584
G1 X117.268 Y97.125 E11.97208
G1 X117.871 Y97.238 E11.99249
G1 X118.299 Y97.347 E12.00718
G1 X118.516 Y97.418 E12.01477
G1 X118.576 Y97.437 E12.01687
G1 X118.831 Y97.52 E12.02579
G1 X118.471 Y97.763 E12.03247
G1 X118.416 Y97.795 E12.03444
G1 X118.167 Y97.942 E12.04406
G1 X117.426 Y98.317 E12.07168
G1 X117.495 Y99.405 E12.10794
G1 X118.059 Y99.587 E12.12765
G1 X118.494 Y99.759 E12.14321
G1 X118.696 Y99.855 E12.15065
G1 X118.746 Y99.879 E12.15249
G1 X118.996 Y99.999 E12.16172
G1 X118.596 Y100.195 E12.16878
G1 X118.545 Y100.217 E12.17052
G1 X118.283 Y100.329 E12.18
G1 X117.495 Y100.605 E12.20777
G1 X117.426 Y101.683 E12.2437
G1 X118.168 Y102.058 E12.27135
G1 X118.446 Y102.222 E12.28209
G1 X118.456 Y102.228 E12.28247
G1 X118.616 Y102.334 E12.28886
G1 X118.833 Y102.479 E12.29754
G0 X118.571 Y102.567
G1 X118.428 Y102.616 E12.29972
G1 X118.417 Y102.619 E12.3001
G1 X118.07 Y102.715 E12.31207
G1 X117.885 Y102.759 E12.3184
G1 X117.268 Y102.875 E12.33928
G1 X117.056 Y103.943 E12.37549
G1 X117.736 Y104.406 E12.40286
G1 X117.998 Y104.612 E12.41394
G1 X118.001 Y104.614 E12.41406
G1 X118.145 Y104.74 E12.42043
G1 X118.349 Y104.917 E12.42941
G0 X118.073 Y104.971
G1 X117.918 Y105.002 E12.43208
G1 X117.915 Y105.002 E12.43218
G1 X117.575 Y105.049 E12.4436
G1 X117.356 Y105.071 E12.45092
G1 X116.745 Y105.105 E12.47127
G1 X116.392 Y106.145 E12.5078
G1 X116.871 Y106.554 E12.52875
G1 X117.166 Y106.841 E12.54244
G1 X117.329 Y107.023 E12.55056
G1 X117.363 Y107.06 E12.55224
G1 X117.551 Y107.27 E12.56161
G1 X117.1 Y107.297 E12.56892
G1 X117.049 Y107.297 E12.57053
G1 X116.762 Y107.3 E12.58007
G1 X116.546 Y107.293 E12.58726
G1 X115.938 Y107.246 E12.60755
G1 X115.448 Y108.233 E12.6442
G1 X115.854 Y108.68 E12.66428
G1 X116.144 Y109.048 E12.67986
G1 X116.265 Y109.224 E12.68697
G1 X116.296 Y109.269 E12.68878
G1 X116.452 Y109.495 E12.69792
G1 X116.008 Y109.468 E12.70498
G1 X115.954 Y109.462 E12.70669
G1 X115.666 Y109.425 E12.71635
G1 X114.848 Y109.272 E12.74402
G1 X114.243 Y110.178 E12.78026
G1 X114.587 Y110.679 E12.80047
G1 X114.813 Y111.056 E12.81509
G1 X114.919 Y111.265 E12.82289
G1 X114.948 Y111.323 E12.82504
G1 X115.014 Y111.452 E12.82986
G1 X115.07 Y111.561 E12.83394
G0 X114.866 Y111.527
G1 X114.644 Y111.479 E12.83916
G1 X114.581 Y111.463 E12.84118
G1 X114.293 Y111.387 E12.85108
G1 X113.512 Y111.132 E12.87841
G1 X112.792 Y111.95 E12.91465
G1 X113.066 Y112.486 E12.93468
G1 X113.158 Y112.69 E12.94212
G1 X113.267 Y112.961 E12.95183
G1 X113.288 Y113.014 E12.95373
G1 X113.376 Y113.255 E12.96226
G1 X113.399 Y113.332 E12.96494
G1 X113.429 Y113.429 E12.96831
G0 X113.331 Y113.399
G0 X113.256 Y113.376
G0 X113.163 Y113.34
G1 X113.109 Y113.32 E12.97012
G1 X112.688 Y113.157 E12.98513
G1 X111.941 Y112.8 E13.01267
G1 X111.126 Y113.518 E13.0488
G1 X111.332 Y114.11 E13.06964
G1 X111.45 Y114.529 E13.08412
G1 X111.496 Y114.744 E13.09143
G1 X111.507 Y114.797 E13.09323
G1 X111.566 Y115.071 E13.10256
G1 X111.163 Y114.871 E13.10976
G1 X111.116 Y114.845 E13.11144
G1 X110.863 Y114.702 E13.12111
G1 X110.694 Y114.598 E13.12771
G1 X110.179 Y114.242 E13.14853
G1 X109.263 Y114.854 E13.18517
G1 X109.39 Y115.446 E13.20531
G1 X109.454 Y115.884 E13.22003
G1 X109.472 Y116.116 E13.22777
G1 X109.477 Y116.186 E13.23011
G1 X109.498 Y116.451 E13.23895
G1 X109.142 Y116.212 E13.24536
G1 X109.087 Y116.17 E13.24749
G1 X108.839 Y115.984 E13.2578
G1 X108.684 Y115.858 E13.26445
G1 X108.233 Y115.448 E13.28472
G1 X107.246 Y115.938 E13.32137
G1 X107.293 Y116.536 E13.34132
G1 X107.3 Y116.969 E13.35572
G1 X107.287 Y117.217 E13.36398
G1 X107.284 Y117.277 E13.36598
G1 X107.269 Y117.55 E13.37507
G1 X106.939 Y117.258 E13.38194
G1 X106.897 Y117.216 E13.38379
G1 X106.693 Y117.017 E13.39327
G1 X106.136 Y116.395 E13.42104
G1 X105.104 Y116.745 E13.45729
G1 X105.072 Y117.35 E13.47744
G1 X105.02 Y117.798 E13.49244
G1 X104.977 Y118.026 E13.50016
G1 X104.97 Y118.067 E13.50154
G1 X104.917 Y118.349 E13.51108
G1 X104.614 Y118.001 E13.5188
G1 X104.588 Y117.968 E13.52014
G1 X104.406 Y117.736 E13.52995
G1 X103.943 Y117.056 E13.55731
G1 X102.874 Y117.268 E13.59356
G1 X102.765 Y117.856 E13.61345
G1 X102.654 Y118.297 E13.62857
G1 X102.582 Y118.517 E13.63627
G1 X102.564 Y118.575 E13.63829
G1 X102.518 Y118.715 E13.64319
G1 X102.48 Y118.831 E13.64725
