;FLAVOR:RepRap
;TIME:3616
;Generated with Cura_SteamEngine 2.3.1
M190 S110
M104 S235
M109 S235
G21 ;metric values
G90 ;absolute positioning
M82 ;set extruder to absolute mode
M107 ;start with the fan off
G28 X0 Y0 ;move X/Y to min endstops
G28 Z0 ;move Z to min endstops
G1 Z15.0 F9000 ;move the platform down 15mm
G92 E0 ;zero the extruded length
G1 F200 E3 ;extrude 3mm of feed stock
G92 E0 ;zero the extruded length again
G1 F9000
;Put printing message on LCD screen
M117 Printing...
;LAYER_COUNT:166
;LAYER:0
M107
G0 F3600 X52.897 Y53.179 Z.2
G0 X53.127 Y52.975
;TYPE:SKIRT
G1 F1800 X53.627 Y52.573 E0.02347
G1 X54.045 Y52.288 E0.04198
G1 X54.502 Y52.073 E0.06046
G1 X55.086 Y51.914 E0.0826
G1 X55.438 Y51.853 E0.09567
G1 X55.984 Y51.806 E0.11572
G1 X144.03 Y51.807 E3.33699
G1 X144.534 Y51.847 E3.35549
G1 X144.809 Y51.903 E3.36575
G1 X145.279 Y52.021 E3.38348
G1 X145.758 Y52.183 E3.40198
G1 X146.206 Y52.418 E3.42049
G1 X146.748 Y52.848 E3.4458
G1 X147.142 Y53.237 E3.46606
G1 X147.473 Y53.619 E3.48455
G1 X147.744 Y54.058 E3.50343
G1 X149.211 Y56.929 E3.62138
G1 X151.939 Y61.726 E3.82328
G1 X154.451 Y65.706 E3.99547
G1 X154.686 Y66.153 E4.01395
G1 X154.848 Y66.632 E4.03245
G1 X154.936 Y67.177 E4.05265
G1 X154.974 Y67.689 E4.07143
G1 X154.972 Y68.195 E4.08994
G1 X154.89 Y68.694 E4.10845
G1 X154.643 Y69.362 E4.1345
G1 X154.138 Y70.368 E4.17568
G1 X154.049 Y70.533 E4.18254
G1 X110.334 Y146.206 E7.37989
G1 X110.047 Y146.622 E7.39838
G1 X109.589 Y147.082 E7.42213
G1 X109.243 Y147.365 E7.43848
G1 X108.828 Y147.653 E7.45696
G1 X108.289 Y147.903 E7.4787
G1 X108.047 Y147.989 E7.4881
G1 X107.558 Y148.12 E7.50662
G1 X106.863 Y148.172 E7.53212
G1 X101.107 Y147.971 E7.74284
G1 X95.563 Y148.066 E7.9457
G1 X93.193 Y148.174 E8.0325
G1 X92.688 Y148.157 E8.05099
G1 X92.192 Y148.06 E8.06948
G1 X91.927 Y147.974 E8.07967
G1 X91.59 Y147.848 E8.09283
G1 X91.132 Y147.634 E8.11133
G1 X90.714 Y147.351 E8.1298
G1 X90.337 Y146.996 E8.14874
G1 X89.925 Y146.54 E8.17123
G1 X89.527 Y145.994 E8.19595
G1 X45.487 Y69.676 E11.41967
G1 X45.27 Y69.22 E11.43815
G1 X45.127 Y68.735 E11.45665
G1 X45.077 Y68.418 E11.46839
G1 X45.027 Y67.951 E11.48557
G1 X45.013 Y67.445 E11.50409
G1 X45.079 Y66.944 E11.52258
G1 X45.154 Y66.658 E11.5334
G1 X45.254 Y66.337 E11.5457
G1 X45.442 Y65.868 E11.56418
G1 X45.599 Y65.587 E11.57596
G1 X48.73 Y60.602 E11.79133
G1 X50.073 Y58.244 E11.89061
G1 X52.295 Y53.988 E12.06627
G1 X52.564 Y53.56 E12.08476
G1 X52.897 Y53.179 E12.10328
G1 X53.127 Y52.975 E12.11453
G0 F3600 X54.817 Y54.801
G0 X55.717 Y55.743
G0 X55.715 Y55.84
G0 X55.631 Y55.787
;TYPE:WALL-INNER
G1 F1800 X55.673 Y55.73 E12.11712
G1 X55.72 Y55.686 E12.11947
G1 X55.768 Y55.654 E12.12158
G1 X55.842 Y55.621 E12.12455
G1 X55.901 Y55.605 E12.12678
G1 X55.996 Y55.597 E12.13027
G1 X144.004 Y55.597 E15.35014
G1 X144.099 Y55.605 E15.35363
G1 X144.158 Y55.621 E15.35587
G1 X144.232 Y55.654 E15.35883
G1 X144.28 Y55.686 E15.36094
G1 X144.327 Y55.73 E15.3633
G1 X144.369 Y55.786 E15.36586
G1 X144.399 Y55.847 E15.36835
G1 X144.42 Y55.912 E15.37085
G1 X144.428 Y55.974 E15.37313
G1 X144.426 Y56.049 E15.37588
G1 X144.413 Y56.11 E15.37816
G1 X144.361 Y56.219 E15.38258
G1 X143.888 Y56.738 E15.40827
G1 X143.512 Y57.228 E15.43087
G1 X143.182 Y57.753 E15.45355
G1 X142.902 Y58.307 E15.47626
G1 X142.677 Y58.884 E15.49892
G1 X142.506 Y59.482 E15.52168
G1 X142.393 Y60.091 E15.54434
G1 X142.337 Y60.707 E15.56697
G1 X142.337 Y61.327 E15.58965
G1 X142.398 Y61.95 E15.61256
G1 X142.516 Y62.561 E15.63532
G1 X142.693 Y63.158 E15.6581
G1 X142.924 Y63.735 E15.68084
G1 X143.208 Y64.288 E15.70359
G1 X143.543 Y64.813 E15.72637
G1 X143.927 Y65.301 E15.74909
G1 X144.353 Y65.752 E15.77179
G1 X144.822 Y66.164 E15.79463
G1 X145.346 Y66.54 E15.81822
G1 X145.883 Y66.852 E15.84095
G1 X146.446 Y67.112 E15.86363
G1 X147.03 Y67.318 E15.88629
G1 X147.632 Y67.469 E15.909
G1 X148.245 Y67.562 E15.93168
G1 X148.864 Y67.597 E15.95437
G1 X149.484 Y67.575 E15.97706
G1 X150.097 Y67.494 E15.99969
G1 X150.776 Y67.344 E16.02513
G1 X150.838 Y67.343 E16.02739
G1 X150.904 Y67.353 E16.02984
G1 X150.968 Y67.374 E16.0323
G1 X151.028 Y67.406 E16.03479
G1 X151.077 Y67.444 E16.03706
G1 X151.123 Y67.494 E16.03954
G1 X151.162 Y67.553 E16.04213
G1 X151.189 Y67.619 E16.04474
G1 X151.203 Y67.675 E16.04685
G1 X151.208 Y67.747 E16.04949
G1 X151.201 Y67.811 E16.05185
G1 X151.181 Y67.886 E16.05469
G1 X151.147 Y67.958 E16.0576
G1 X107.142 Y144.174 E19.27746
G1 X107.083 Y144.26 E19.28127
G1 X107.039 Y144.304 E19.28355
G1 X106.985 Y144.343 E19.28599
G1 X106.925 Y144.373 E19.28844
G1 X106.856 Y144.393 E19.29107
G1 X106.79 Y144.401 E19.2935
G1 X106.725 Y144.398 E19.29588
G1 X106.662 Y144.384 E19.29824
G1 X106.596 Y144.357 E19.30085
G1 X106.543 Y144.324 E19.30314
G1 X106.492 Y144.278 E19.30565
G1 X106.446 Y144.22 E19.30836
G1 X106.42 Y144.173 E19.31032
G1 X106.209 Y143.508 E19.33585
G1 X105.973 Y142.938 E19.35842
G1 X105.683 Y142.39 E19.3811
G1 X105.343 Y141.871 E19.4038
G1 X104.955 Y141.387 E19.4265
G1 X104.525 Y140.942 E19.44914
G1 X104.054 Y140.538 E19.47184
G1 X103.548 Y140.18 E19.49452
G1 X102.988 Y139.861 E19.5181
G1 X102.42 Y139.605 E19.54089
G1 X101.832 Y139.405 E19.56361
G1 X101.227 Y139.261 E19.58637
G1 X100.611 Y139.174 E19.60913
G1 X99.99 Y139.146 E19.63187
G1 X99.37 Y139.176 E19.65458
G1 X98.753 Y139.264 E19.67738
G1 X98.149 Y139.411 E19.70012
G1 X97.561 Y139.613 E19.72287
G1 X96.992 Y139.871 E19.74573
G1 X96.453 Y140.179 E19.76844
G1 X95.947 Y140.537 E19.79112
G1 X95.476 Y140.941 E19.81382
G1 X95.046 Y141.386 E19.83646
G1 X94.658 Y141.87 E19.85916
G1 X94.318 Y142.389 E19.88186
G1 X94.028 Y142.937 E19.90454
G1 X93.791 Y143.507 E19.92713
G1 X93.58 Y144.173 E19.95269
G1 X93.554 Y144.22 E19.95465
G1 X93.508 Y144.278 E19.95736
G1 X93.457 Y144.324 E19.95987
G1 X93.404 Y144.357 E19.96216
G1 X93.338 Y144.384 E19.96476
G1 X93.275 Y144.398 E19.96713
G1 X93.21 Y144.401 E19.96951
G1 X93.144 Y144.393 E19.97194
G1 X93.075 Y144.373 E19.97457
G1 X93.015 Y144.343 E19.97702
G1 X92.961 Y144.304 E19.97946
G1 X92.917 Y144.26 E19.98174
G1 X92.858 Y144.174 E19.98555
G1 X48.853 Y67.958 E23.20541
G1 X48.819 Y67.886 E23.20832
G1 X48.799 Y67.811 E23.21116
G1 X48.792 Y67.747 E23.21351
G1 X48.797 Y67.675 E23.21616
G1 X48.838 Y67.553 E23.22086
G1 X48.877 Y67.494 E23.22345
G1 X48.923 Y67.444 E23.22594
G1 X48.972 Y67.406 E23.22821
G1 X49.032 Y67.374 E23.23069
G1 X49.096 Y67.353 E23.23316
G1 X49.162 Y67.343 E23.2356
G1 X49.221 Y67.344 E23.23776
G1 X49.904 Y67.493 E23.26334
G1 X50.514 Y67.573 E23.28584
G1 X51.134 Y67.597 E23.30854
G1 X51.753 Y67.563 E23.33123
G1 X52.367 Y67.47 E23.35395
G1 X52.969 Y67.319 E23.37665
G1 X53.553 Y67.113 E23.39931
G1 X54.117 Y66.852 E23.42205
G1 X54.672 Y66.528 E23.44556
G1 X55.177 Y66.164 E23.46833
G1 X55.646 Y65.753 E23.49115
G1 X56.072 Y65.302 E23.51385
G1 X56.456 Y64.814 E23.53656
G1 X56.791 Y64.289 E23.55935
G1 X57.075 Y63.736 E23.58209
G1 X57.306 Y63.159 E23.60483
G1 X57.478 Y62.581 E23.6269
G1 X57.598 Y61.971 E23.64964
G1 X57.66 Y61.354 E23.67233
G1 X57.666 Y60.735 E23.69498
G1 X57.612 Y60.117 E23.71767
G1 X57.501 Y59.507 E23.74036
G1 X57.332 Y58.909 E23.76309
G1 X57.108 Y58.331 E23.78577
G1 X56.832 Y57.777 E23.80842
G1 X56.504 Y57.25 E23.83113
G1 X56.13 Y56.759 E23.85371
G1 X55.645 Y56.226 E23.88007
G1 X55.616 Y56.178 E23.88213
G1 X55.588 Y56.109 E23.88485
G1 X55.576 Y56.052 E23.88698
G1 X55.573 Y55.98 E23.88962
G1 X55.583 Y55.905 E23.89239
G1 X55.603 Y55.84 E23.89487
G1 X55.631 Y55.787 E23.89707
G0 F3600 X55.715 Y55.84
G0 X66.049 Y64.318
G0 X66.109 Y64.397
G1 F1800 X65.75 Y65.649 E23.94472
G1 X65.476 Y66.44 E23.97535
G1 X65.159 Y67.214 E24.00595
G1 X64.806 Y67.958 E24.03607
G1 X64.403 Y68.701 E24.067
G1 X63.97 Y69.407 E24.0973
G1 X63.494 Y70.097 E24.12797
G1 X62.988 Y70.749 E24.15816
G1 X62.439 Y71.385 E24.1889
G1 X61.534 Y72.323 E24.23659
G1 X95.425 Y131.022 E26.71641
G1 X96.691 Y130.705 E26.76416
G1 X97.513 Y130.548 E26.79478
G1 X98.327 Y130.437 E26.82483
G1 X99.164 Y130.37 E26.85555
G1 X100 Y130.346 E26.88615
G1 X100.836 Y130.37 E26.91675
G1 X101.673 Y130.437 E26.94747
G1 X102.487 Y130.548 E26.97753
G1 X103.309 Y130.705 E27.00815
G1 X104.575 Y131.022 E27.05589
G1 X138.466 Y72.323 E29.53571
G1 X137.561 Y71.385 E29.5834
G1 X137.012 Y70.749 E29.61414
G1 X136.506 Y70.097 E29.64433
G1 X136.03 Y69.407 E29.675
G1 X135.597 Y68.701 E29.7053
G1 X135.194 Y67.958 E29.73623
G1 X134.841 Y67.214 E29.76636
G1 X134.524 Y66.44 E29.79696
G1 X134.25 Y65.649 E29.82758
G1 X133.891 Y64.397 E29.87524
G1 X66.109 Y64.397 E32.35512
G0 F3600 X66.411 Y64.797
;TYPE:WALL-OUTER
G1 F1800 X66.134 Y65.764 E32.39192
G1 X65.851 Y66.581 E32.42355
G1 X65.529 Y67.366 E32.4546
G1 X65.158 Y68.149 E32.4863
G1 X64.755 Y68.892 E32.51722
G1 X64.308 Y69.622 E32.54854
G1 X63.815 Y70.335 E32.58025
G1 X63.291 Y71.011 E32.61155
G1 X62.738 Y71.651 E32.64249
G1 X62.031 Y72.384 E32.67975
G1 X95.621 Y130.561 E35.13753
G1 X96.608 Y130.314 E35.17475
G1 X97.44 Y130.155 E35.20574
G1 X98.295 Y130.038 E35.23731
G1 X99.14 Y129.97 E35.26833
G1 X100 Y129.946 E35.2998
G1 X100.86 Y129.97 E35.33128
G1 X101.705 Y130.038 E35.3623
G1 X102.56 Y130.155 E35.39387
G1 X103.392 Y130.314 E35.42486
G1 X104.379 Y130.561 E35.46208
G1 X137.969 Y72.384 E37.91986
G1 X137.262 Y71.651 E37.95712
G1 X136.709 Y71.011 E37.98806
G1 X136.185 Y70.335 E38.01936
G1 X135.692 Y69.622 E38.05107
G1 X135.245 Y68.892 E38.08239
G1 X134.842 Y68.149 E38.11331
G1 X134.471 Y67.366 E38.14501
G1 X134.149 Y66.581 E38.17605
G1 X133.866 Y65.764 E38.20769
G1 X133.589 Y64.797 E38.24449
G1 X66.411 Y64.797 E40.70227
G0 F3600 X65.931 Y64.659
G0 X57.579 Y62.582
G0 X57.089 Y62.485
G1 F1800 X57.202 Y61.912 E40.72364
G1 X57.26 Y61.332 E40.74497
G1 X57.266 Y60.75 E40.76626
G1 X57.215 Y60.17 E40.78756
G1 X57.111 Y59.597 E40.80887
G1 X56.952 Y59.036 E40.8302
G1 X56.742 Y58.493 E40.8515
G1 X56.482 Y57.972 E40.87281
G1 X56.174 Y57.477 E40.89414
G1 X55.822 Y57.015 E40.91539
G1 X55.325 Y56.469 E40.9424
G1 X55.255 Y56.353 E40.94735
G1 X55.205 Y56.23 E40.95221
G1 X55.177 Y56.102 E40.95701
G1 X55.172 Y55.962 E40.96213
G1 X55.19 Y55.821 E40.96733
G1 X55.233 Y55.686 E40.97252
G1 X55.29 Y55.576 E40.97705
G1 X55.373 Y55.464 E40.98215
G1 X55.468 Y55.374 E40.98694
G1 X55.576 Y55.301 E40.99171
G1 X55.709 Y55.242 E40.99703
G1 X55.834 Y55.209 E41.00176
G1 X55.974 Y55.197 E41.0069
G1 X144.026 Y55.197 E44.22838
G1 X144.166 Y55.209 E44.23352
G1 X144.291 Y55.242 E44.23825
G1 X144.424 Y55.301 E44.24358
G1 X144.532 Y55.374 E44.24835
G1 X144.627 Y55.464 E44.25313
G1 X144.71 Y55.576 E44.25823
G1 X144.771 Y55.695 E44.26313
G1 X144.811 Y55.824 E44.26807
G1 X144.829 Y55.956 E44.27294
G1 X144.825 Y56.093 E44.27796
G1 X144.797 Y56.226 E44.28293
G1 X144.748 Y56.351 E44.28784
G1 X144.682 Y56.461 E44.29253
G1 X144.195 Y56.995 E44.31898
G1 X143.841 Y57.457 E44.34027
G1 X143.531 Y57.95 E44.36158
G1 X143.268 Y58.47 E44.3829
G1 X143.056 Y59.012 E44.40419
G1 X142.896 Y59.573 E44.42553
G1 X142.79 Y60.146 E44.44685
G1 X142.737 Y60.725 E44.46812
G1 X142.737 Y61.308 E44.48945
G1 X142.794 Y61.892 E44.51092
G1 X142.905 Y62.466 E44.53231
G1 X143.071 Y63.027 E44.55372
G1 X143.288 Y63.569 E44.57508
G1 X143.555 Y64.088 E44.59643
G1 X143.87 Y64.581 E44.61783
G1 X144.23 Y65.04 E44.63918
G1 X144.631 Y65.464 E44.66053
G1 X145.071 Y65.85 E44.68194
G1 X145.564 Y66.204 E44.70415
G1 X146.068 Y66.497 E44.72548
G1 X146.597 Y66.741 E44.74679
G1 X147.145 Y66.935 E44.76806
G1 X147.711 Y67.076 E44.7894
G1 X148.287 Y67.164 E44.81072
G1 X148.868 Y67.197 E44.83201
G1 X149.451 Y67.176 E44.85335
G1 X150.027 Y67.1 E44.87461
G1 X150.727 Y66.945 E44.90084
G1 X150.862 Y66.942 E44.90578
G1 X150.997 Y66.963 E44.91078
G1 X151.126 Y67.005 E44.91574
G1 X151.246 Y67.069 E44.92072
G1 X151.348 Y67.148 E44.92544
G1 X151.442 Y67.25 E44.93051
G1 X151.517 Y67.365 E44.93553
G1 X151.569 Y67.489 E44.94045
G1 X151.6 Y67.614 E44.94517
G1 X151.609 Y67.755 E44.95033
G1 X151.596 Y67.886 E44.95515
G1 X151.559 Y68.021 E44.96027
G1 X151.501 Y68.145 E44.96528
G1 X107.48 Y144.389 E48.18632
G1 X107.393 Y144.515 E48.19192
G1 X107.298 Y144.611 E48.19686
G1 X107.192 Y144.687 E48.20163
G1 X107.069 Y144.748 E48.20665
G1 X106.94 Y144.786 E48.21157
G1 X106.805 Y144.802 E48.21655
G1 X106.669 Y144.795 E48.22153
G1 X106.54 Y144.766 E48.22637
G1 X106.413 Y144.714 E48.23139
G1 X106.302 Y144.645 E48.23617
G1 X106.201 Y144.554 E48.24114
G1 X106.113 Y144.444 E48.2463
G1 X106.051 Y144.333 E48.25095
G1 X105.833 Y143.645 E48.27735
G1 X105.611 Y143.109 E48.29858
G1 X105.338 Y142.594 E48.31991
G1 X105.019 Y142.106 E48.34124
G1 X104.655 Y141.652 E48.36253
G1 X104.25 Y141.233 E48.38385
G1 X103.808 Y140.854 E48.40515
G1 X103.333 Y140.518 E48.42643
G1 X102.807 Y140.218 E48.44859
G1 X102.273 Y139.978 E48.47001
G1 X101.721 Y139.79 E48.49134
G1 X101.153 Y139.654 E48.51271
G1 X100.574 Y139.573 E48.5341
G1 X99.991 Y139.546 E48.55545
G1 X99.408 Y139.575 E48.57681
G1 X98.829 Y139.657 E48.5982
G1 X98.262 Y139.795 E48.61955
G1 X97.709 Y139.985 E48.64095
G1 X97.174 Y140.228 E48.66244
G1 X96.668 Y140.517 E48.68376
G1 X96.193 Y140.853 E48.70505
G1 X95.751 Y141.232 E48.72635
G1 X95.346 Y141.651 E48.74767
G1 X94.982 Y142.105 E48.76896
G1 X94.663 Y142.593 E48.79029
G1 X94.39 Y143.108 E48.81162
G1 X94.167 Y143.644 E48.83286
G1 X93.949 Y144.333 E48.8593
G1 X93.887 Y144.444 E48.86395
G1 X93.799 Y144.554 E48.8691
G1 X93.698 Y144.645 E48.87408
G1 X93.587 Y144.714 E48.87886
G1 X93.46 Y144.766 E48.88388
G1 X93.331 Y144.795 E48.88872
G1 X93.195 Y144.802 E48.8937
G1 X93.06 Y144.786 E48.89867
G1 X92.931 Y144.748 E48.90359
G1 X92.808 Y144.687 E48.90862
G1 X92.702 Y144.611 E48.91339
G1 X92.607 Y144.515 E48.91833
G1 X92.52 Y144.389 E48.92393
G1 X48.499 Y68.145 E52.14497
G1 X48.441 Y68.021 E52.14997
G1 X48.404 Y67.886 E52.1551
G1 X48.391 Y67.755 E52.15991
G1 X48.4 Y67.614 E52.16508
G1 X48.431 Y67.489 E52.16979
G1 X48.483 Y67.365 E52.17471
G1 X48.558 Y67.25 E52.17974
G1 X48.652 Y67.148 E52.18481
G1 X48.754 Y67.069 E52.18953
G1 X48.874 Y67.005 E52.19451
G1 X49.003 Y66.963 E52.19947
G1 X49.138 Y66.942 E52.20447
G1 X49.27 Y66.945 E52.2093
G1 X49.973 Y67.099 E52.23563
G1 X50.548 Y67.174 E52.25684
G1 X51.131 Y67.197 E52.27819
G1 X51.712 Y67.165 E52.29948
G1 X52.288 Y67.077 E52.3208
G1 X52.854 Y66.936 E52.34214
G1 X53.402 Y66.742 E52.36341
G1 X53.932 Y66.497 E52.38477
G1 X54.454 Y66.192 E52.40689
G1 X54.928 Y65.851 E52.42825
G1 X55.368 Y65.465 E52.44967
G1 X55.769 Y65.041 E52.47102
G1 X56.129 Y64.582 E52.49236
G1 X56.444 Y64.089 E52.51376
G1 X56.711 Y63.57 E52.53512
G1 X56.928 Y63.028 E52.55648
G1 X57.089 Y62.485 E52.5772
G0 F3600 X57.624 Y62.715
;TYPE:SKIN
G1 F1800 X63.97 Y69.061 E52.90554
G0 X64.04 Y69.131
G0 F3600 X63.75 Y69.407
G1 F1800 X57.494 Y63.151 E53.22923
G0 X57.424 Y63.081
G0 F3600 X57.337 Y63.56
G1 F1800 X63.519 Y69.741 E53.54907
G0 X63.589 Y69.811
G0 F3600 X63.284 Y70.072
G1 F1800 X57.164 Y63.952 E53.86572
G0 X57.094 Y63.882
G0 F3600 X56.973 Y64.326
G1 F1800 X63.037 Y70.391 E54.1795
G0 X63.107 Y70.461
G0 F3600 X62.786 Y70.706
G1 F1800 X56.756 Y64.676 E54.4915
G0 X56.686 Y64.606
G0 F3600 X56.527 Y65.012
G1 F1800 X62.524 Y71.009 E54.80179
G0 X62.594 Y71.079
G0 F3600 X62.26 Y71.311
G1 F1800 X56.277 Y65.328 E55.11135
G0 X56.207 Y65.258
G0 F3600 X56.01 Y65.627
G1 F1800 X61.982 Y71.598 E55.42032
G0 X62.052 Y71.668
G0 F3600 X61.704 Y71.886
G1 F1800 X55.732 Y65.915 E55.72929
G0 X55.662 Y65.845
G0 F3600 X55.432 Y66.18
G1 F1800 X61.426 Y72.174 E56.03942
G0 X61.496 Y72.244
G0 F3600 X61.484 Y72.232
G0 X61.757 Y73.071
G1 F1800 X55.116 Y66.429 E56.38306
G0 X55.046 Y66.359
G0 F3600 X54.787 Y66.666
G1 F1800 X62.53 Y74.41 E56.78371
G0 X62.6 Y74.48
G0 F3600 X63.303 Y75.748
G1 F1800 X54.432 Y66.877 E57.2427
G0 X54.362 Y66.807
G0 F3600 X54.064 Y67.075
G1 F1800 X64.076 Y77.087 E57.76073
G0 X64.146 Y77.157
G0 F3600 X64.849 Y78.425
G1 F1800 X53.677 Y67.253 E58.33878
G0 X53.607 Y67.183
G0 F3600 X53.263 Y67.405
G1 F1800 X65.622 Y79.764 E58.97824
G0 X65.692 Y79.834
G0 F3600 X66.395 Y81.103
G1 F1800 X52.83 Y67.538 E59.6801
G0 X52.76 Y67.468
G0 F3600 X52.376 Y67.649
G1 F1800 X67.168 Y82.441 E60.44545
G0 X67.238 Y82.511
G0 F3600 X67.94 Y83.78
G1 F1800 X51.885 Y67.724 E61.27617
G0 X51.815 Y67.654
