;FLAVOR:RepRap
;TIME:680
;Filament used: 0.738595m
;Layer height: 0.2
;Generated with Cura_SteamEngine master
M190 S90
M104 S250
M109 S250
G21 ;metric values
G90 ;absolute positioning
M82 ;set extruder to absolute mode
M107 ;start with the fan off
G28 X0 Y0 ;move X/Y to min endstops
G28 Z0 ;move Z to min endstops
G1 Z15.0 F9000 ;move the platform down 15mm
G92 E0 ;zero the extruded length
G1 F200 E3 ;extrude 3mm of feed stock
G92 E0 ;zero the extruded length again
G1 F9000
;Put printing message on LCD screen
M117 Printing...
;LAYER_COUNT:30
;LAYER:0
M107
G1 F1500 E-2
G0 F2700 X92.477 Y74.718 Z0.2
G0 X92.813 Y74.323
;TYPE:SKIRT
G1 F1500 E0
G1 F1800 X93.264 Y73.865 E0.02138
G1 X93.668 Y73.512 E0.03922
G1 X94.21 Y73.176 E0.06043
G1 X94.786 Y72.886 E0.08188
G1 X95.282 Y72.681 E0.09973
G1 X95.802 Y72.552 E0.11755
G1 X96.098 Y72.514 E0.12748
G1 X97.279 Y72.413 E0.1669
G1 X97.617 Y72.4 E0.17815
G1 X105.505 Y72.468 E0.44052
G1 X106.039 Y72.513 E0.45834
G1 X106.561 Y72.636 E0.47618
G1 X106.994 Y72.805 E0.49164
G1 X107.696 Y73.132 E0.5174
G1 X108.164 Y73.394 E0.53523
G1 X108.767 Y73.895 E0.56131
G1 X109.234 Y74.379 E0.58368
G1 X109.576 Y74.792 E0.60151
G1 X109.88 Y75.304 E0.62132
G1 X110.136 Y75.83 E0.64078
G1 X110.334 Y76.328 E0.6586
G1 X110.456 Y76.85 E0.67643
G1 X110.493 Y77.195 E0.68797
G1 X110.778 Y82.08 E0.85072
G1 X111.293 Y87.55 E1.03346
G1 X111.66 Y90.228 E1.12336
G1 X112.532 Y95.244 E1.2927
G1 X112.584 Y95.778 E1.31054
G1 X112.577 Y96.097 E1.32116
G1 X112.541 Y96.644 E1.33939
G1 X112.424 Y97.349 E1.36316
G1 X111.217 Y101.805 E1.51671
G1 X110.033 Y107.192 E1.70015
G1 X109.578 Y109.792 E1.78794
G1 X108.655 Y117.219 E2.03687
G1 X108.603 Y117.53 E2.04736
G1 X108.394 Y118.504 E2.08049
G1 X108.234 Y119.041 E2.09912
G1 X108.008 Y119.629 E2.12008
G1 X107.675 Y120.285 E2.14455
G1 X107.283 Y120.894 E2.16863
G1 X106.96 Y121.323 E2.18649
G1 X106.711 Y121.579 E2.19837
G1 X106.384 Y121.884 E2.21325
G1 X105.966 Y122.219 E2.23106
G1 X105.667 Y122.404 E2.24276
G1 X99.571 Y125.765 E2.47429
G1 X97.451 Y126.996 E2.55582
G1 X96.968 Y127.23 E2.57367
G1 X96.456 Y127.39 E2.59151
G1 X96.149 Y127.447 E2.6019
G1 X95.43 Y127.549 E2.62605
G1 X94.895 Y127.585 E2.64389
G1 X94.261 Y127.523 E2.66507
G1 X93.663 Y127.411 E2.68531
G1 X93.145 Y127.274 E2.70313
G1 X92.47 Y126.958 E2.72792
G1 X91.81 Y126.561 E2.75354
G1 X91.373 Y126.251 E2.77136
G1 X90.857 Y125.728 E2.79579
G1 X90.461 Y125.234 E2.81685
G1 X90.158 Y124.791 E2.8347
G1 X89.904 Y124.26 E2.85428
G1 X89.688 Y123.691 E2.87452
G1 X89.536 Y123.176 E2.89238
G1 X89.483 Y122.873 E2.90261
G1 X88.677 Y116.615 E3.11247
G1 X88.649 Y116.216 E3.12578
G1 X88.584 Y112.363 E3.25395
G1 X88.36 Y106.838 E3.43786
G1 X87.829 Y101.387 E3.62002
G1 X87.441 Y98.475 E3.71773
G1 X87.411 Y97.94 E3.73555
G1 X87.452 Y97.454 E3.75177
G1 X87.804 Y95.162 E3.8289
G1 X88.471 Y89.701 E4.01188
G1 X88.794 Y85.108 E4.16502
G1 X88.871 Y84.578 E4.18284
G1 X89.015 Y84.095 E4.1996
G1 X89.568 Y82.622 E4.25193
G1 X91.712 Y76.188 E4.4775
G1 X91.941 Y75.65 E4.49694
G1 X92.192 Y75.173 E4.51487
G1 X92.477 Y74.718 E4.53273
G1 X92.813 Y74.323 E4.54998
G0 F2700 X93.098 Y74.604
G1 F1800 X93.549 Y74.146 E4.57135
G1 X93.931 Y73.815 E4.58817
G1 X94.39 Y73.533 E4.60608
G1 X94.966 Y73.243 E4.62753
G1 X95.434 Y73.052 E4.64434
G1 X96.132 Y72.913 E4.66802
G1 X97.313 Y72.812 E4.70744
G1 X97.614 Y72.8 E4.71746
G1 X105.502 Y72.868 E4.97982
G1 X106.005 Y72.912 E4.99662
G1 X106.496 Y73.035 E5.01345
G1 X106.825 Y73.167 E5.02524
G1 X107.527 Y73.494 E5.051
G1 X107.967 Y73.743 E5.06782
G1 X108.479 Y74.173 E5.09005
G1 X108.946 Y74.657 E5.11242
G1 X109.267 Y75.047 E5.12922
G1 X109.52 Y75.479 E5.14588
G1 X109.776 Y76.005 E5.16533
G1 X109.961 Y76.475 E5.18213
G1 X110.094 Y77.219 E5.20727
G1 X110.379 Y82.111 E5.37025
G1 X110.898 Y87.621 E5.55433
G1 X111.26 Y90.267 E5.64316
G1 X112.138 Y95.313 E5.81351
G1 X112.185 Y95.816 E5.83031
G1 X112.178 Y96.071 E5.83879
G1 X112.142 Y96.618 E5.85703
G1 X112.038 Y97.245 E5.87817
G1 X110.825 Y101.722 E6.03244
G1 X109.642 Y107.106 E6.21579
G1 X109.186 Y109.714 E6.30384
G1 X108.259 Y117.17 E6.55374
G1 X108.212 Y117.446 E6.56305
G1 X108.003 Y118.42 E6.59619
G1 X107.861 Y118.897 E6.61274
G1 X107.635 Y119.485 E6.63369
G1 X107.339 Y120.069 E6.65547
G1 X106.947 Y120.678 E6.67956
G1 X106.64 Y121.08 E6.69638
G1 X106.439 Y121.286 E6.70595
G1 X106.112 Y121.591 E6.72082
G1 X105.716 Y121.906 E6.73765
G1 X105.474 Y122.053 E6.74707
G1 X99.39 Y125.407 E6.97814
G1 X97.25 Y126.65 E7.06045
G1 X96.794 Y126.869 E7.07728
G1 X96.092 Y127.051 E7.1014
G1 X95.373 Y127.153 E7.12555
G1 X94.869 Y127.185 E7.14235
G1 X94.335 Y127.13 E7.1602
G1 X93.737 Y127.018 E7.18044
G1 X93.249 Y126.886 E7.19725
G1 X92.677 Y126.615 E7.2183
G1 X92.017 Y126.218 E7.24392
G1 X91.605 Y125.924 E7.26075
G1 X91.169 Y125.477 E7.28152
G1 X90.773 Y124.983 E7.30258
G1 X90.489 Y124.565 E7.31939
G1 X90.278 Y124.118 E7.33583
G1 X90.062 Y123.549 E7.35607
G1 X89.88 Y122.822 E7.381
G1 X89.074 Y116.564 E7.59086
G1 X89.048 Y116.209 E7.6027
G1 X88.982 Y112.295 E7.7329
G1 X88.76 Y106.819 E7.91518
G1 X88.224 Y101.321 E8.09891
G1 X87.838 Y98.422 E8.19618
G1 X87.811 Y97.917 E8.213
G1 X87.847 Y97.515 E8.22643
G1 X88.201 Y95.206 E8.30412
G1 X88.869 Y89.738 E8.48734
G1 X89.193 Y85.137 E8.64075
G1 X89.268 Y84.637 E8.65757
G1 X89.389 Y84.236 E8.6715
G1 X89.942 Y82.763 E8.72383
G1 X92.091 Y76.314 E8.94992
G1 X92.295 Y75.836 E8.9672
G1 X92.546 Y75.359 E8.98513
G1 X92.816 Y74.931 E9.00196
G1 X93.098 Y74.604 E9.01632
G1 F1500 E7.01632
G0 F2700 X94.977 Y76.268
G0 X95.973 Y77.078
G0 X96.033 Y77.132
G0 X95.959 Y77.065
;TYPE:WALL-INNER
G1 F1500 E9.01632
G1 F1800 X96.065 Y76.959 E9.02131
G1 X96.17 Y76.874 E9.0258
G1 X96.307 Y76.785 E9.03124
G1 X96.427 Y76.724 E9.03571
G1 X96.578 Y76.666 E9.04109
G1 X96.707 Y76.631 E9.04554
G1 X96.85 Y76.609 E9.05035
G1 X97.013 Y76.6 E9.05578
G1 X104.987 Y76.6 E9.321
G1 X105.15 Y76.609 E9.32643
G1 X105.293 Y76.631 E9.33124
G1 X105.422 Y76.666 E9.33569
G1 X105.573 Y76.724 E9.34107
G1 X105.693 Y76.785 E9.34554
G1 X105.83 Y76.874 E9.35098
G1 X105.935 Y76.959 E9.35547
G1 X106.041 Y77.065 E9.36046
G1 X106.124 Y77.167 E9.36483
G1 X106.216 Y77.31 E9.37048
G1 X106.276 Y77.428 E9.37489
G1 X106.333 Y77.574 E9.3801
G1 X106.367 Y77.702 E9.38451
G1 X106.391 Y77.85 E9.38949
G1 X106.399 Y78 E9.39449
G1 X106.391 Y78.151 E9.39952
G1 X106.369 Y78.291 E9.40423
G1 X106.332 Y78.428 E9.40895
G1 X103.43 Y85.689 E9.66903
G1 X103.321 Y85.962 E9.6788
G1 X103.614 Y85.962 E9.68452
G1 X103.616 Y85.962 E9.68458
G1 X104.4 Y85.962 E9.71066
G1 X104.4 Y94.6 E9.99796
G1 X106.987 Y94.6 E10.084
G1 X107.15 Y94.609 E10.08943
G1 X107.293 Y94.631 E10.09425
G1 X107.422 Y94.666 E10.09869
G1 X107.573 Y94.724 E10.10407
G1 X107.693 Y94.785 E10.10855
G1 X107.83 Y94.874 E10.11398
G1 X107.935 Y94.959 E10.11848
G1 X108.041 Y95.065 E10.12346
G1 X108.126 Y95.17 E10.12795
G1 X108.215 Y95.307 E10.13339
G1 X108.278 Y95.43 E10.13798
G1 X108.331 Y95.569 E10.14293
G1 X108.37 Y95.715 E10.14796
G1 X108.391 Y95.848 E10.15244
G1 X108.399 Y96 E10.1575
G1 X108.391 Y96.151 E10.16253
G1 X108.37 Y96.285 E10.16704
G1 X108.333 Y96.424 E10.17182
G1 X108.274 Y96.58 E10.17737
G1 X104.4 Y104.973 E10.48483
G1 X104.4 Y111.126 E10.68948
G1 X104.33 Y111.126 E10.6918
G1 X104.467 Y112.572 E10.74011
G1 X104.522 Y113.295 E10.76423
G1 X104.562 Y113.964 E10.78652
G1 X104.586 Y114.579 E10.80699
G1 X104.594 Y115.132 E10.82539
G1 X104.576 Y115.86 E10.84961
G1 X104.522 Y116.508 E10.87123
G1 X104.431 Y117.085 E10.89066
G1 X104.315 Y117.559 E10.90689
G1 X104.166 Y117.973 E10.92153
G1 X103.988 Y118.32 E10.9345
G1 X103.805 Y118.565 E10.94467
G1 X103.577 Y118.773 E10.95493
G1 X103.309 Y118.936 E10.96537
G1 X102.998 Y119.053 E10.97642
G1 X102.618 Y119.131 E10.98932
G1 X102.159 Y119.158 E11.00461
G1 X100.155 Y119.158 E11.07127
G1 X99.859 Y119.123 E11.08118
G1 X99.633 Y119.035 E11.08925
G1 X99.416 Y118.881 E11.0981
G1 X99.202 Y118.64 E11.10882
G1 X98.97 Y118.26 E11.12363
G1 X98.251 Y118.299 E11.14758
G1 X96.289 Y122.548 E11.30324
G1 X96.214 Y122.697 E11.30878
G1 X96.127 Y122.83 E11.31407
G1 X96.042 Y122.935 E11.31856
G1 X95.94 Y123.037 E11.32336
G1 X95.824 Y123.131 E11.32833
G1 X95.704 Y123.209 E11.33309
G1 X95.568 Y123.279 E11.33818
G1 X95.428 Y123.332 E11.34315
G1 X95.3 Y123.366 E11.34756
G1 X95.142 Y123.391 E11.35288
G1 X95 Y123.399 E11.35761
G1 X94.86 Y123.391 E11.36227
G1 X94.701 Y123.366 E11.36763
G1 X94.573 Y123.333 E11.37202
G1 X94.424 Y123.275 E11.37734
G1 X94.301 Y123.212 E11.38194
G1 X94.178 Y123.132 E11.38682
G1 X94.065 Y123.041 E11.39164
G1 X93.959 Y122.935 E11.39663
G1 X93.874 Y122.83 E11.40112
G1 X93.787 Y122.697 E11.40641
G1 X93.719 Y122.561 E11.41147
G1 X93.667 Y122.423 E11.41637
G1 X93.63 Y122.284 E11.42116
G1 X93.609 Y122.15 E11.42567
G1 X93.601 Y122.008 E11.4304
G1 X93.609 Y121.844 E11.43586
G1 X94.094 Y118.698 E11.54173
G1 X93.556 Y118.312 E11.56375
G1 X93.388 Y118.129 E11.57202
G1 X93.246 Y117.89 E11.58126
G1 X93.114 Y117.561 E11.59305
G1 X92.996 Y117.141 E11.60756
G1 X92.905 Y116.666 E11.62365
G1 X92.835 Y116.094 E11.64282
G1 X92.794 Y115.465 E11.66378
G1 X92.779 Y114.771 E11.68687
G1 X92.799 Y113.895 E11.71601
G1 X92.856 Y112.653 E11.75736
G1 X92.919 Y111.622 E11.79172
G1 X93.465 Y111.622 E11.80988
G1 X93.643 Y111.622 E11.8158
G1 X93.738 Y111.38 E11.82445
G0 X93.717 Y111.628
G1 X93.702 Y111.805 E11.82858
G1 X93.65 Y112.376 E11.84765
G1 X93.571 Y113.531 E11.88616
G1 X93.551 Y114.02 E11.90243
G1 X93.536 Y114.975 E11.9342
G1 X94.653 Y115.068 E11.97148
G1 X95.251 Y111.179 E12.10235
G1 X93.925 Y110.908 E12.14736
G1 X93.943 Y110.862 E12.14901
G1 X93.565 Y110.509 E12.16621
G1 X93.376 Y110.247 E12.17695
G1 X93.202 Y109.906 E12.18969
G1 X93.057 Y109.5 E12.20403
G1 X92.936 Y109.011 E12.22078
G1 X92.85 Y108.468 E12.23907
G1 X92.798 Y107.871 E12.259
G1 X92.779 Y107.184 E12.28186
G1 X92.791 Y106.507 E12.30438
G1 X92.824 Y105.831 E12.32689
G1 X92.88 Y105.164 E12.34915
G1 X92.974 Y104.386 E12.37521
G1 X92.974 Y102.618 E12.43402
G1 X96.763 Y101.348 E12.56693
G1 X97.028 Y99.63 E12.62475
G1 X97.063 Y99.4 E12.63249
G1 X96.831 Y99.4 E12.63728
G1 X96.83 Y99.4 E12.63731
G1 X93.03 Y99.4 E12.7637
G1 X92.841 Y99.391 E12.76999
G1 X92.707 Y99.37 E12.7745
G1 X92.578 Y99.335 E12.77895
G1 X92.427 Y99.277 E12.78433
G1 X92.307 Y99.216 E12.78881
G1 X92.17 Y99.127 E12.79424
G1 X92.065 Y99.042 E12.79873
G1 X91.959 Y98.936 E12.80372
G1 X91.876 Y98.834 E12.80809
G1 X91.784 Y98.691 E12.81375
G1 X91.724 Y98.573 E12.81815
G1 X91.668 Y98.429 E12.82329
G1 X91.63 Y98.285 E12.82824
G1 X91.609 Y98.151 E12.83275
G1 X91.601 Y98 E12.83778
G1 X91.609 Y97.85 E12.84278
G1 X91.635 Y97.688 E12.84824
G1 X93.567 Y88.036 E13.17563
G1 X93.614 Y87.798 E13.1837
G1 X93.372 Y87.798 E13.18864
G1 X93.371 Y87.798 E13.18867
G1 X92.974 Y87.798 E13.20188
G1 X92.974 Y85.962 E13.26294
G1 X93.981 Y85.962 E13.29644
G1 X95.627 Y77.726 E13.57578
G1 X95.667 Y77.574 E13.58101
G1 X95.724 Y77.428 E13.58622
G1 X95.784 Y77.31 E13.59063
G1 X95.876 Y77.167 E13.59628
G1 X95.959 Y77.065 E13.60066
G0 F2700 X96.033 Y77.132
G0 X97.816 Y78.414
G0 X97.896 Y78.472
G1 F1800 X97.748 Y78.7 E13.6097
G1 X97.624 Y78.942 E13.61874
G1 X97.526 Y79.196 E13.6278
G1 X97.456 Y79.46 E13.63688
G1 X97.414 Y79.728 E13.6459
G1 X97.399 Y80 E13.65496
G1 X97.414 Y80.273 E13.66406
G1 X97.456 Y80.541 E13.67308
G1 X97.526 Y80.805 E13.68216
G1 X97.625 Y81.06 E13.69126
G1 X97.748 Y81.3 E13.70023
G1 X97.896 Y81.529 E13.7093
G1 X98.067 Y81.741 E13.71836
G1 X98.26 Y81.934 E13.72744
G1 X98.472 Y82.105 E13.7365
G1 X98.7 Y82.253 E13.74554
G1 X98.942 Y82.377 E13.75458
G1 X99.196 Y82.475 E13.76364
G1 X99.46 Y82.545 E13.77272
G1 X99.729 Y82.587 E13.78178
G1 X100 Y82.6 E13.7908
G1 X100.271 Y82.587 E13.79982
G1 X100.54 Y82.545 E13.80888
G1 X100.804 Y82.475 E13.81796
G1 X101.058 Y82.377 E13.82702
G1 X101.3 Y82.253 E13.83606
G1 X101.528 Y82.105 E13.8451
G1 X101.74 Y81.934 E13.85416
G1 X101.933 Y81.741 E13.86324
G1 X102.104 Y81.529 E13.8723
G1 X102.252 Y81.3 E13.88137
G1 X102.375 Y81.06 E13.89034
G1 X102.474 Y80.805 E13.89944
G1 X102.544 Y80.541 E13.90852
G1 X102.586 Y80.273 E13.91754
G1 X102.601 Y80 E13.92664
G1 X102.586 Y79.728 E13.9357
G1 X102.544 Y79.46 E13.94472
G1 X102.474 Y79.196 E13.9538
G1 X102.376 Y78.942 E13.96286
G1 X102.252 Y78.7 E13.9719
G1 X102.104 Y78.472 E13.98094
G1 X101.933 Y78.26 E13.99
G1 X101.74 Y78.067 E13.99908
G1 X101.528 Y77.896 E14.00814
G1 X101.3 Y77.748 E14.01718
G1 X101.058 Y77.624 E14.02622
G1 X100.804 Y77.526 E14.03528
G1 X100.54 Y77.456 E14.04436
G1 X100.272 Y77.414 E14.05339
G1 X100 Y77.399 E14.06245
G1 X99.728 Y77.414 E14.07151
G1 X99.46 Y77.456 E14.08053
G1 X99.196 Y77.526 E14.08961
G1 X98.942 Y77.624 E14.09867
G1 X98.7 Y77.748 E14.10771
G1 X98.472 Y77.896 E14.11675
G1 X98.26 Y78.067 E14.12581
G1 X98.067 Y78.26 E14.13489
G1 X97.896 Y78.472 E14.14395
G0 F2700 X97.816 Y78.414
G0 X97.417 Y79.452
G0 X97.375 Y80.277
G0 X97.589 Y81.076
G0 X98.038 Y81.767
G0 X102.421 Y88.011
G0 X102.468 Y88.098
G1 F1800 X99.975 Y94.327 E14.3671
G1 X99.866 Y94.6 E14.37688
G1 X100.159 Y94.6 E14.38259
G1 X100.161 Y94.6 E14.38266
G1 X103.44 Y94.6 E14.49172
G1 X103.44 Y88.287 E14.70169
G1 X102.468 Y88.098 E14.73463
G0 F2700 X102.421 Y88.011
G0 X96.57 Y102.938
G0 X96.507 Y103.015
G1 F1800 X96.189 Y103.132 E14.74589
G1 X93.936 Y103.965 E14.82579
G1 X93.769 Y105.029 E14.86161
G1 X93.699 Y105.616 E14.88127
G1 X93.655 Y106.155 E14.89926
G1 X93.642 Y106.644 E14.91553
G1 X93.647 Y107.034 E14.9285
G1 X93.667 Y107.388 E14.94029
G1 X93.7 Y107.711 E14.95109
G1 X93.749 Y108.005 E14.96101
G1 X93.814 Y108.275 E14.97024
G1 X93.907 Y108.531 E14.9793
G1 X94.04 Y108.771 E14.98843
G1 X94.221 Y108.988 E14.99783
G1 X94.447 Y109.163 E15.00733
G1 X94.704 Y109.284 E15.01678
G1 X95.301 Y109.43 E15.03722
G1 X95.512 Y109.481 E15.04444
G1 X95.545 Y109.266 E15.04901
G1 X96.456 Y103.35 E15.2481
G1 X96.507 Y103.015 E15.25451
G0 F2700 X96.57 Y102.938
G0 X102.493 Y108.922
G0 X102.537 Y109.011
G1 F1800 X99.098 Y116.461 E15.52742
G1 X99.44 Y116.986 E15.54826
G1 X99.866 Y117.29 E15.56567
G1 X100.331 Y117.381 E15.58143
G1 X101.863 Y117.381 E15.63238
G1 X102.153 Y117.366 E15.64204
G1 X102.444 Y117.316 E15.65186
G1 X102.723 Y117.226 E15.66161
G1 X102.983 Y117.085 E15.67145
G1 X103.207 Y116.898 E15.68115
G1 X103.389 Y116.667 E15.69093
G1 X103.518 Y116.409 E15.70053
G1 X103.61 Y116.135 E15.71014
G1 X103.675 Y115.837 E15.72029
G1 X103.718 Y115.514 E15.73112
G1 X103.744 Y115.162 E15.74286
G1 X103.752 Y114.777 E15.75567
G1 X103.738 Y114.043 E15.78009
G1 X103.71 Y113.637 E15.79362
G1 X103.651 Y113.04 E15.81358
G1 X103.569 Y112.489 E15.83211
G1 X103.384 Y111.522 E15.86485
G1 X103.38 Y111.505 E15.86543
G1 X103.479 Y111.505 E15.8672
G1 X103.479 Y109.218 E15.94327
G1 X102.537 Y109.011 E15.97535
G0 F2700 X102.765 Y109.471
;TYPE:WALL-OUTER
G1 F1800 X102.69 Y109.633 E15.98129
G1 X99.554 Y116.428 E16.2302
G1 X99.734 Y116.704 E16.24116
G1 X100.028 Y116.914 E16.25317
G1 X100.37 Y116.981 E16.26476
G1 X101.853 Y116.981 E16.31409
G1 X102.109 Y116.968 E16.32261
G1 X102.348 Y116.927 E16.33068
G1 X102.564 Y116.857 E16.33823
G1 X102.757 Y116.752 E16.34554
G1 X102.919 Y116.617 E16.35255
G1 X103.05 Y116.451 E16.35959
G1 X103.148 Y116.255 E16.36687
G1 X103.224 Y116.028 E16.37484
G1 X103.281 Y115.768 E16.38369
G1 X103.32 Y115.473 E16.39359
G1 X103.344 Y115.143 E16.40459
G1 X103.352 Y114.777 E16.41677
G1 X103.338 Y114.061 E16.44059
G1 X103.311 Y113.67 E16.45362
G1 X103.254 Y113.089 E16.47304
G1 X103.174 Y112.555 E16.491
G1 X103.073 Y112.007 E16.50953
G1 X102.899 Y111.142 E16.53888
G1 X102.891 Y111.105 E16.54014
G1 X103.079 Y111.105 E16.54384
G1 X103.079 Y109.719 E16.58994
G1 X103.079 Y109.54 E16.59532
G1 X102.765 Y109.471 E16.60601
G0 F2700 X102.69 Y109.633
G0 X102.681 Y109.652
G0 X102.229 Y109.443
G0 X102.52 Y108.976
G0 X103.51 Y109.193
G0 X104.272 Y111.572
G0 X104.77 Y111.526
G1 F1800 X104.866 Y112.542 E16.63995
G1 X104.921 Y113.271 E16.66427
G1 X104.962 Y113.949 E16.68686
G1 X104.986 Y114.573 E16.70763
G1 X104.994 Y115.142 E16.72656
G1 X104.975 Y115.893 E16.75154
G1 X104.92 Y116.549 E16.77344
G1 X104.824 Y117.161 E16.79404
G1 X104.697 Y117.678 E16.81175
G1 X104.532 Y118.136 E16.82794
