;FLAVOR:RepRap
;TIME:1058
;Filament used: 0.981072m
;Layer height: 0.2
;Generated with Cura_SteamEngine master
M190 S90
M104 S250
M109 S250
G21 ;metric values
G90 ;absolute positioning
M82 ;set extruder to absolute mode
M107 ;start with the fan off
G28 X0 Y0 ;move X/Y to min endstops
G28 Z0 ;move Z to min endstops
G1 Z15.0 F9000 ;move the platform down 15mm
G92 E0 ;zero the extruded length
G1 F200 E3 ;extrude 3mm of feed stock
G92 E0 ;zero the extruded length again
G1 F9000
;Put printing message on LCD screen
M117 Printing...
;LAYER_COUNT:20
;LAYER:0
M107
G1 F1500 E-2
G0 F2700 X76.29 Y77.6 Z0.2
;TYPE:SKIRT
G1 F1500 E0
G1 F1800 X76.858 Y77.051 E0.02627
G1 X77.347 Y76.658 E0.04714
G1 X77.936 Y76.222 E0.07151
G1 X78.594 Y75.785 E0.09779
G1 X79.292 Y75.416 E0.12405
G1 X80.025 Y75.12 E0.15034
G1 X80.783 Y74.9 E0.17659
G1 X81.56 Y74.758 E0.20286
G1 X82.347 Y74.694 E0.22912
G1 X83.136 Y74.711 E0.25537
G1 X83.92 Y74.808 E0.28165
G1 X84.311 Y74.886 E0.29491
G1 X84.561 Y74.943 E0.30344
G1 X84.631 Y74.963 E0.30586
G1 X84.697 Y74.915 E0.30857
G1 X85.526 Y74.389 E0.34123
G1 X87.727 Y73.179 E0.42476
G1 X88.616 Y72.761 E0.45744
G1 X90.952 Y71.837 E0.54099
G1 X91.88 Y71.535 E0.57345
G1 X94.312 Y70.91 E0.65697
G1 X95.275 Y70.727 E0.68957
G1 X97.768 Y70.412 E0.77315
G1 X98.746 Y70.35 E0.80574
G1 X101.254 Y70.35 E0.88916
G1 X102.232 Y70.412 E0.92175
G1 X104.725 Y70.727 E1.00533
G1 X105.688 Y70.91 E1.03793
G1 X108.12 Y71.535 E1.12145
G1 X109.048 Y71.837 E1.1539
G1 X111.384 Y72.761 E1.23746
G1 X112.273 Y73.179 E1.27013
G1 X114.474 Y74.389 E1.35367
G1 X115.302 Y74.915 E1.3863
G1 X117.334 Y76.392 E1.46985
G1 X118.085 Y77.013 E1.50226
G1 X119.916 Y78.731 E1.58577
G1 X120.637 Y79.505 E1.62095
G1 X120.65 Y79.521 E1.62164
G1 X120.904 Y79.635 E1.6309
G1 X121.587 Y80.03 E1.65714
G1 X122.228 Y80.492 E1.68342
G1 X123.048 Y81.253 E1.72063
G1 X123.416 Y81.647 E1.73856
G1 X123.925 Y82.251 E1.76483
G1 X124.371 Y82.903 E1.79111
G1 X124.748 Y83.596 E1.81734
G1 X124.796 Y83.711 E1.82149
G1 X124.834 Y83.758 E1.8235
G1 X125.21 Y84.361 E1.84713
G1 X125.523 Y84.742 E1.86353
G1 X125.993 Y85.377 E1.88981
G1 X126.396 Y86.056 E1.91607
G1 X126.728 Y86.772 E1.94232
G1 X126.934 Y87.367 E1.96326
G1 X127.064 Y87.612 E1.97249
G1 X127.362 Y88.344 E1.99878
G1 X127.585 Y89.101 E2.02502
G1 X127.729 Y89.878 E2.05131
G1 X127.795 Y90.665 E2.07757
G1 X127.781 Y91.454 E2.10382
G1 X127.686 Y92.238 E2.13009
G1 X127.514 Y93.009 E2.15636
G1 X127.37 Y93.441 E2.17151
G1 X127.503 Y94.137 E2.19508
G1 X127.627 Y95.112 E2.22776
G1 X127.785 Y97.619 E2.31131
G1 X127.785 Y98.601 E2.34397
G1 X127.627 Y101.108 E2.42752
G1 X127.503 Y102.082 E2.46018
G1 X127.031 Y104.55 E2.54375
G1 X126.789 Y105.494 E2.57617
G1 X126.014 Y107.881 E2.65964
G1 X125.655 Y108.789 E2.69211
G1 X124.587 Y111.062 E2.77564
G1 X124.111 Y111.927 E2.80848
G1 X122.764 Y114.048 E2.89205
G1 X122.342 Y114.649 E2.91648
G1 X121.572 Y115.641 E2.95824
G1 X121.097 Y116.197 E2.98256
G1 X119.378 Y118.028 E3.0661
G1 X118.661 Y118.7 E3.09878
G1 X116.726 Y120.3 E3.18229
G1 X115.939 Y120.872 E3.21465
G1 X113.819 Y122.219 E3.29819
G1 X112.954 Y122.695 E3.33103
G1 X110.68 Y123.764 E3.4146
G1 X109.773 Y124.123 E3.44705
G1 X108.996 Y124.375 E3.47422
G1 X108.916 Y124.538 E3.48025
G1 X108.496 Y125.207 E3.50653
G1 X107.959 Y125.889 E3.5354
G1 X107.444 Y126.473 E3.5613
G1 X106.893 Y127.038 E3.58755
G1 X106.287 Y127.544 E3.6138
G1 X105.567 Y128.026 E3.64262
G1 X104.893 Y128.425 E3.66867
G1 X104.194 Y128.792 E3.69493
G1 X103.462 Y129.087 E3.72118
G1 X102.622 Y129.325 E3.75022
G1 X101.857 Y129.496 E3.77629
G1 X101.078 Y129.629 E3.80257
G1 X100.29 Y129.683 E3.82884
G1 X99.177 Y129.622 E3.86592
G1 X98.251 Y129.505 E3.89696
G1 X97.474 Y129.367 E3.92321
G1 X96.714 Y129.151 E3.94949
G1 X95.689 Y128.717 E3.98651
G1 X94.99 Y128.361 E4.0126
G1 X94.305 Y127.968 E4.03887
G1 X93.664 Y127.507 E4.06513
G1 X92.842 Y126.749 E4.10232
G1 X92.201 Y126.066 E4.13347
G1 X91.691 Y125.463 E4.15974
G1 X91.244 Y124.812 E4.186
G1 X91.025 Y124.408 E4.20129
G1 X90.949 Y124.383 E4.20395
G1 X88.613 Y123.458 E4.28752
G1 X87.73 Y123.043 E4.31997
G1 X85.529 Y121.834 E4.40349
G1 X84.697 Y121.306 E4.43626
G1 X82.664 Y119.828 E4.51986
G1 X81.914 Y119.207 E4.55225
G1 X80.083 Y117.489 E4.63576
G1 X79.409 Y116.771 E4.66851
G1 X77.809 Y114.836 E4.75202
G1 X77.236 Y114.048 E4.78443
G1 X75.889 Y111.927 E4.868
G1 X75.413 Y111.062 E4.90083
G1 X74.345 Y108.789 E4.98436
G1 X73.986 Y107.881 E5.01684
G1 X73.211 Y105.494 E5.10031
G1 X72.969 Y104.55 E5.13272
G1 X72.497 Y102.082 E5.2163
G1 X72.373 Y101.108 E5.24895
G1 X72.215 Y98.603 E5.33244
G1 X72.215 Y97.622 E5.36506
G1 X72.373 Y95.114 E5.44865
G1 X72.497 Y94.139 E5.48134
G1 X72.682 Y93.172 E5.51408
G1 X72.631 Y93.025 E5.51926
G1 X72.41 Y92.267 E5.54552
G1 X72.267 Y91.49 E5.57179
G1 X72.204 Y90.703 E5.59805
G1 X72.22 Y89.914 E5.6243
G1 X72.316 Y89.13 E5.65057
G1 X72.49 Y88.36 E5.67683
G1 X72.742 Y87.611 E5.70311
G1 X72.813 Y87.454 E5.70884
G1 X72.703 Y86.954 E5.72587
G1 X72.656 Y86.644 E5.7363
G1 X72.577 Y85.858 E5.76257
G1 X72.579 Y85.069 E5.78882
G1 X72.66 Y84.283 E5.8151
G1 X72.82 Y83.51 E5.84135
G1 X73.057 Y82.756 E5.86764
G1 X73.362 Y81.936 E5.89674
G1 X73.675 Y81.211 E5.923
G1 X74.059 Y80.521 E5.94927
G1 X74.466 Y79.931 E5.97311
G1 X75.781 Y78.203 E6.04533
G1 X76.29 Y77.6 E6.07158
G0 F2700 X76.596 Y77.859
G1 F1800 X77.151 Y77.326 E6.09717
G1 X77.585 Y76.979 E6.11565
G1 X78.174 Y76.543 E6.14002
G1 X78.815 Y76.118 E6.1656
G1 X79.497 Y75.762 E6.19119
G1 X80.212 Y75.479 E6.21677
G1 X80.953 Y75.271 E6.24237
G1 X81.711 Y75.142 E6.26794
G1 X82.479 Y75.092 E6.29354
G1 X83.247 Y75.121 E6.3191
G1 X84.222 Y75.276 E6.35194
G1 X84.472 Y75.333 E6.36046
G1 X84.711 Y75.401 E6.36873
G1 X84.933 Y75.239 E6.37787
G1 X85.719 Y74.739 E6.40885
G1 X87.92 Y73.529 E6.49239
G1 X88.763 Y73.133 E6.52337
G1 X91.099 Y72.209 E6.60692
G1 X91.979 Y71.923 E6.6377
G1 X94.411 Y71.298 E6.72122
G1 X95.325 Y71.123 E6.75217
G1 X97.818 Y70.808 E6.83574
G1 X98.746 Y70.75 E6.86667
G1 X101.254 Y70.75 E6.95009
G1 X102.182 Y70.808 E6.98101
G1 X104.675 Y71.123 E7.06459
G1 X105.589 Y71.298 E7.09554
G1 X108.021 Y71.923 E7.17906
G1 X108.901 Y72.209 E7.20983
G1 X111.237 Y73.133 E7.29339
G1 X112.08 Y73.529 E7.32436
G1 X114.281 Y74.739 E7.4079
G1 X115.067 Y75.238 E7.43887
G1 X117.099 Y76.715 E7.52242
G1 X117.811 Y77.305 E7.55318
G1 X119.642 Y79.023 E7.63669
G1 X120.326 Y79.757 E7.67006
G1 X120.398 Y79.846 E7.67386
G1 X120.775 Y80.018 E7.68765
G1 X121.437 Y80.409 E7.71322
G1 X122.055 Y80.867 E7.7388
G1 X122.756 Y81.526 E7.7708
G1 X123.124 Y81.92 E7.78873
G1 X123.619 Y82.509 E7.81432
G1 X124.05 Y83.145 E7.83988
G1 X124.413 Y83.824 E7.86548
G1 X124.451 Y83.923 E7.86901
G1 X124.557 Y84.058 E7.87472
G1 X124.897 Y84.61 E7.89628
G1 X125.214 Y84.996 E7.9129
G1 X125.671 Y85.615 E7.93849
G1 X126.061 Y86.278 E7.96407
G1 X126.38 Y86.978 E7.98966
G1 X126.569 Y87.533 E8.00916
G1 X126.71 Y87.8 E8.0192
G1 X126.997 Y88.514 E8.04479
G1 X127.209 Y89.253 E8.07037
G1 X127.343 Y90.01 E8.09593
G1 X127.398 Y90.778 E8.12154
G1 X127.372 Y91.546 E8.1471
G1 X127.267 Y92.308 E8.17269
G1 X127.084 Y93.055 E8.19827
G1 X126.957 Y93.41 E8.21081
G1 X127.11 Y94.212 E8.23796
G1 X127.227 Y95.138 E8.26901
G1 X127.385 Y97.645 E8.35255
G1 X127.385 Y98.575 E8.38349
G1 X127.227 Y101.082 E8.46703
G1 X127.11 Y102.007 E8.49805
G1 X126.638 Y104.475 E8.58162
G1 X126.408 Y105.37 E8.61235
G1 X125.633 Y107.757 E8.69583
G1 X125.293 Y108.619 E8.72665
G1 X124.225 Y110.892 E8.81018
G1 X123.774 Y111.712 E8.8413
G1 X122.427 Y113.833 E8.92487
G1 X122.026 Y114.403 E8.94805
G1 X121.256 Y115.395 E8.98982
G1 X120.805 Y115.923 E9.01291
G1 X119.086 Y117.754 E9.09644
G1 X118.407 Y118.392 E9.12743
G1 X116.472 Y119.992 E9.21094
G1 X115.724 Y120.535 E9.24169
G1 X113.604 Y121.882 E9.32523
G1 X112.784 Y122.333 E9.35635
G1 X110.51 Y123.402 E9.43993
G1 X109.649 Y123.743 E9.47073
G1 X108.712 Y124.047 E9.50349
G1 X108.557 Y124.36 E9.51511
G1 X108.146 Y125.01 E9.54069
G1 X107.659 Y125.624 E9.56675
G1 X107.144 Y126.208 E9.59265
G1 X106.606 Y126.758 E9.61824
G1 X106.014 Y127.249 E9.64382
G1 X105.364 Y127.682 E9.6698
G1 X104.69 Y128.081 E9.69585
G1 X104.008 Y128.438 E9.72145
G1 X103.294 Y128.722 E9.74701
G1 X102.534 Y128.935 E9.77326
G1 X101.769 Y129.106 E9.79933
G1 X101.011 Y129.234 E9.8249
G1 X100.243 Y129.283 E9.8505
G1 X99.227 Y129.226 E9.88434
G1 X98.301 Y129.109 E9.91539
G1 X97.544 Y128.973 E9.94097
G1 X96.805 Y128.759 E9.96656
G1 X95.871 Y128.361 E10.00032
G1 X95.172 Y128.005 E10.02641
G1 X94.505 Y127.621 E10.05201
G1 X93.883 Y127.17 E10.07757
G1 X93.134 Y126.475 E10.11155
G1 X92.493 Y125.792 E10.14271
G1 X91.997 Y125.205 E10.16827
G1 X91.564 Y124.569 E10.19386
G1 X91.3 Y124.077 E10.21243
G1 X91.097 Y124.011 E10.21953
G1 X88.761 Y123.086 E10.30309
G1 X87.922 Y122.692 E10.33392
G1 X85.721 Y121.483 E10.41744
G1 X84.933 Y120.982 E10.4485
G1 X82.9 Y119.504 E10.5321
G1 X82.188 Y118.915 E10.56283
G1 X80.357 Y117.197 E10.64634
G1 X79.717 Y116.517 E10.6774
G1 X78.117 Y114.582 E10.76091
G1 X77.573 Y113.833 E10.7917
G1 X76.226 Y111.712 E10.87527
G1 X75.775 Y110.892 E10.9064
G1 X74.707 Y108.619 E10.98993
G1 X74.367 Y107.757 E11.02075
G1 X73.592 Y105.37 E11.10422
G1 X73.362 Y104.475 E11.13495
G1 X72.89 Y102.007 E11.21853
G1 X72.773 Y101.083 E11.2495
G1 X72.615 Y98.578 E11.33299
G1 X72.615 Y97.647 E11.36395
G1 X72.773 Y95.139 E11.44753
G1 X72.89 Y94.214 E11.47854
G1 X73.095 Y93.14 E11.51491
G1 X73.085 Y93.113 E11.51587
G1 X73.009 Y92.894 E11.52358
G1 X72.795 Y92.155 E11.54917
G1 X72.659 Y91.398 E11.57475
G1 X72.602 Y90.631 E11.60033
G1 X72.625 Y89.862 E11.62592
G1 X72.728 Y89.1 E11.65149
G1 X72.909 Y88.353 E11.67706
G1 X73.167 Y87.628 E11.70265
G1 X73.229 Y87.497 E11.70747
G1 X73.099 Y86.894 E11.72799
G1 X73.052 Y86.584 E11.73842
G1 X72.976 Y85.819 E11.76399
G1 X72.98 Y85.05 E11.78956
G1 X73.064 Y84.285 E11.81516
G1 X73.227 Y83.533 E11.84075
G1 X73.432 Y82.895 E11.86304
G1 X73.737 Y82.075 E11.89214
G1 X74.042 Y81.369 E11.91772
G1 X74.419 Y80.699 E11.94329
G1 X74.784 Y80.174 E11.96456
G1 X76.099 Y78.446 E12.03678
G1 X76.596 Y77.859 E12.06236
G0 F2700 X76.902 Y78.118
G1 F1800 X77.444 Y77.602 E12.08725
G1 X77.823 Y77.301 E12.10335
G1 X78.412 Y76.865 E12.12772
G1 X79.036 Y76.452 E12.15261
G1 X79.701 Y76.109 E12.1775
G1 X80.398 Y75.839 E12.20236
G1 X81.121 Y75.644 E12.22726
G1 X81.86 Y75.528 E12.25214
G1 X82.607 Y75.491 E12.27702
G1 X83.354 Y75.534 E12.30191
G1 X84.133 Y75.666 E12.32819
G1 X84.383 Y75.723 E12.33671
G1 X84.788 Y75.838 E12.35072
G1 X85.168 Y75.562 E12.36634
G1 X85.912 Y75.09 E12.39564
G1 X88.113 Y73.88 E12.47918
G1 X88.91 Y73.505 E12.50848
G1 X91.246 Y72.581 E12.59203
G1 X92.079 Y72.31 E12.62117
G1 X94.511 Y71.685 E12.70468
G1 X95.376 Y71.52 E12.73397
G1 X97.869 Y71.205 E12.81755
G1 X98.746 Y71.15 E12.84677
G1 X101.254 Y71.15 E12.93019
G1 X102.131 Y71.205 E12.95942
G1 X104.624 Y71.52 E13.04299
G1 X105.489 Y71.685 E13.07228
G1 X107.921 Y72.31 E13.1558
G1 X108.754 Y72.581 E13.18493
G1 X111.09 Y73.505 E13.26849
G1 X111.887 Y73.88 E13.29778
G1 X114.088 Y75.09 E13.38132
G1 X114.832 Y75.562 E13.41063
G1 X116.864 Y77.039 E13.49418
G1 X117.538 Y77.596 E13.52326
G1 X119.369 Y79.314 E13.60677
G1 X120.015 Y80.009 E13.63833
G1 X120.144 Y80.168 E13.64514
G1 X120.644 Y80.401 E13.66349
G1 X121.284 Y80.788 E13.68836
G1 X121.879 Y81.241 E13.71324
G1 X122.464 Y81.799 E13.74012
G1 X122.832 Y82.193 E13.75806
G1 X123.312 Y82.766 E13.78292
G1 X123.729 Y83.387 E13.8078
G1 X124.077 Y84.049 E13.83267
G1 X124.111 Y84.14 E13.8359
G1 X124.278 Y84.356 E13.84498
G1 X124.583 Y84.859 E13.86455
G1 X124.905 Y85.25 E13.8814
G1 X125.348 Y85.852 E13.90626
G1 X125.725 Y86.499 E13.93116
G1 X126.03 Y87.182 E13.95604
G1 X126.203 Y87.697 E13.97411
G1 X126.356 Y87.987 E13.98502
G1 X126.632 Y88.682 E14.00989
G1 X126.833 Y89.403 E14.03478
G1 X126.956 Y90.141 E14.05967
G1 X126.999 Y90.888 E14.08455
G1 X126.962 Y91.635 E14.10943
G1 X126.846 Y92.374 E14.13431
G1 X126.651 Y93.096 E14.15918
G1 X126.543 Y93.376 E14.16917
G1 X126.717 Y94.288 E14.20005
G1 X126.828 Y95.163 E14.22938
G1 X126.986 Y97.67 E14.31293
G1 X126.986 Y98.55 E14.3422
G1 X126.828 Y101.057 E14.42575
G1 X126.717 Y101.932 E14.45508
G1 X126.245 Y104.4 E14.53866
G1 X126.028 Y105.247 E14.56774
G1 X125.253 Y107.634 E14.65121
G1 X124.93 Y108.449 E14.68037
G1 X123.862 Y110.722 E14.7639
G1 X123.436 Y111.498 E14.79334
G1 X122.089 Y113.619 E14.87691
G1 X121.71 Y114.158 E14.89882
G1 X120.94 Y115.15 E14.94059
G1 X120.513 Y115.649 E14.96244
G1 X118.794 Y117.48 E15.04597
G1 X118.152 Y118.084 E15.07529
G1 X116.217 Y119.684 E15.1588
G1 X115.51 Y120.197 E15.18785
G1 X113.39 Y121.544 E15.27139
G1 X112.614 Y121.971 E15.30085
G1 X110.34 Y123.04 E15.38442
G1 X109.525 Y123.362 E15.41357
G1 X108.43 Y123.718 E15.45187
G1 X108.199 Y124.182 E15.4691
G1 X107.796 Y124.812 E15.49398
G1 X107.359 Y125.36 E15.51729
G1 X106.844 Y125.944 E15.54319
G1 X106.32 Y126.478 E15.56807
G1 X105.742 Y126.953 E15.59296
G1 X105.16 Y127.338 E15.61617
G1 X104.486 Y127.737 E15.64222
G1 X103.823 Y128.083 E15.66709
G1 X103.126 Y128.356 E15.69199
G1 X102.447 Y128.544 E15.71542
G1 X101.682 Y128.715 E15.74149
G1 X100.944 Y128.839 E15.76638
G1 X100.198 Y128.884 E15.79124
G1 X99.278 Y128.829 E15.82189
G1 X98.352 Y128.712 E15.85294
G1 X97.615 Y128.578 E15.87785
G1 X96.898 Y128.367 E15.90271
G1 X96.052 Y128.005 E15.93332
G1 X95.353 Y127.649 E15.95941
G1 X94.706 Y127.274 E15.98428
G1 X94.102 Y126.832 E16.00917
G1 X93.426 Y126.201 E16.03993
G1 X92.785 Y125.518 E16.07108
G1 X92.303 Y124.946 E16.09596
G1 X91.885 Y124.326 E16.12083
G1 X91.577 Y123.747 E16.14265
G1 X91.244 Y123.639 E16.15429
G1 X88.908 Y122.714 E16.23785
G1 X88.115 Y122.341 E16.267
G1 X85.914 Y121.132 E16.35052
G1 X85.168 Y120.659 E16.3799
G1 X83.135 Y119.181 E16.4635
G1 X82.461 Y118.624 E16.49258
G1 X80.63 Y116.906 E16.57609
G1 X80.025 Y116.262 E16.60548
G1 X78.425 Y114.327 E16.68899
G1 X77.911 Y113.619 E16.71809
G1 X76.564 Y111.498 E16.80166
G1 X76.138 Y110.722 E16.8311
G1 X75.07 Y108.449 E16.91463
G1 X74.747 Y107.634 E16.94379
G1 X73.972 Y105.247 E17.02726
G1 X73.755 Y104.4 E17.05634
G1 X73.283 Y101.932 E17.13992
G1 X73.172 Y101.058 E17.16922
G1 X73.014 Y98.553 E17.2527
G1 X73.014 Y97.672 E17.282
G1 X73.172 Y95.164 E17.36559
G1 X73.283 Y94.289 E17.39492
G1 X73.512 Y93.093 E17.43542
G1 X73.463 Y92.982 E17.43946
G1 X73.387 Y92.763 E17.44717
G1 X73.18 Y92.044 E17.47206
G1 X73.051 Y91.307 E17.49694
G1 X73.001 Y90.561 E17.52181
G1 X73.031 Y89.813 E17.54671
G1 X73.14 Y89.073 E17.57159
G1 X73.328 Y88.349 E17.59646
G1 X73.592 Y87.65 E17.62132
G1 X73.644 Y87.546 E17.62518
G1 X73.494 Y86.834 E17.64938
G1 X73.447 Y86.524 E17.65981
G1 X73.375 Y85.78 E17.68467
G1 X73.382 Y85.032 E17.70955
G1 X73.469 Y84.289 E17.73443
G1 X73.635 Y83.559 E17.75933
G1 X73.807 Y83.035 E17.77768
G1 X74.112 Y82.215 E17.80678
G1 X74.41 Y81.528 E17.83168
G1 X74.779 Y80.878 E17.85654
G1 X75.103 Y80.416 E17.87531
G1 X76.418 Y78.688 E17.94753
G1 X76.902 Y78.118 E17.9724
G0 F2700 X77.207 Y78.377
G1 F1800 X77.736 Y77.879 E17.99657
G1 X78.061 Y77.622 E18.01035
G1 X78.65 Y77.186 E18.03472
G1 X79.257 Y76.787 E18.05888
G1 X79.904 Y76.457 E18.08304
G1 X80.583 Y76.199 E18.1072
G1 X81.287 Y76.018 E18.13138
G1 X82.006 Y75.916 E18.15553
G1 X82.732 Y75.893 E18.17969
G1 X83.456 Y75.95 E18.20384
G1 X84.044 Y76.056 E18.22372
G1 X84.294 Y76.113 E18.23224
G1 X84.866 Y76.277 E18.25204
G1 X85.403 Y75.886 E18.27413
G1 X86.104 Y75.44 E18.30176
G1 X88.305 Y74.23 E18.3853
G1 X89.057 Y73.877 E18.41293
G1 X91.393 Y72.953 E18.49648
G1 X92.178 Y72.698 E18.52394
G1 X94.61 Y72.073 E18.60745
G1 X95.426 Y71.917 E18.63509
G1 X97.919 Y71.602 E18.71866
G1 X98.746 Y71.55 E18.74622
G1 X101.254 Y71.55 E18.82964
G1 X102.081 Y71.602 E18.8572
G1 X104.574 Y71.917 E18.94078
G1 X105.39 Y72.073 E18.96841
G1 X107.822 Y72.698 E19.05193
G1 X108.607 Y72.953 E19.07938
G1 X110.943 Y73.877 E19.16293
G1 X111.695 Y74.23 E19.19056
G1 X113.896 Y75.44 E19.2741
G1 X114.597 Y75.885 E19.30172
G1 X116.629 Y77.362 E19.38527
G1 X117.264 Y77.888 E19.41269
G1 X119.095 Y79.606 E19.4962
G1 X119.705 Y80.261 E19.52597
G1 X119.889 Y80.488 E19.53569
G1 X120.511 Y80.784 E19.5586
G1 X121.129 Y81.167 E19.58278
